!!!!SEGMENT: pl-wumfc--n2100--001-017_dobrzynski-ignacy-feliks--monbar-czyli-flibustierowie-partytura-fortepianowa-akt-iii-16-arya.krn
!!!cenid: 18xx:4200
!!!COM: Dobrzyński, Ignacy Feliks
!!!COM-rismID: pe30020642
!!!CDT: 1807/02/15-1867/10/09
!!!CNT: Polish
!!!OPR: Monbar czyli Flibustierowie - partytura fortepianowa
!!!OTL: Akt III - 16. Arya
!!!OMV: 017
!!!PDT: 1863
!!!AGN: Secular; Opera
!!!YEC: Copyright 2022 Narodowy Instytut Fryderyka Chopina (https://polishscores.org)
!!!YEM: License CC-BY-4.0 (https://creativecommons.org/licenses/by/4.0)
!!!SMS-siglum: PL-Wumfc
!!!SMS-shelfmark: N2100
!!!SMS-shelfwork: 001-017 M
!!!SMS-variant:
!!!SMS-altvar:
!!!NIFC-rismSourceID: 1001123412
!!!NIFC-rismChildID: 1001123412
!!!NIFC-islandoraID: pl-wumfc:1659
!!!URL-pdf-islandora: https://repozytorium.nifc.pl/islandora/object/pl-wumfc%3A1659/datastream/PDF/view
!!!URL-scan: https://polish.musicsources.pl/pl/lokalizacje/galeria/druki-muzyczne/11863/139 @EN{Scan on Polish Music Sources Website} @PL{Skany w portalu Dziedzictwo Muzyki Polskiej w otwartym dostępie}
!!!IIIF:
!!!ONB-nifc: Skany 0139-0143
!!!AIN: 2 piano 1 soprn
!!!key: G
**kern	**kern	**dynam	**kern	**text	**dynam
*part3	*part2	*	*part1	*	*
*staff3	*staff2	*	*staff1	*	*
*I"Piano	*I"Piano	*	*I"[Voce]	*	*
*I'pf	*I'pf	*	*I'[V]	*	*
*ICklav	*ICklav	*	*ICvox	*	*
*Ipiano	*Ipiano	*	*Isoprn	*	*
*>[A,A1,A,A2,B]	*>[A,A1,A,A2,B]	*>[A,A1,A,A2,B]	*>[A,A1,A,A2,B]	*>[A,A1,A,A2,B]	*>[A,A1,A,A2,B]
*>A	*>A	*>A	*>A	*>A	*>A
*clefF4	*clefG2	*	*clefG2	*	*
*k[f#]	*k[f#]	*	*k[f#]	*	*
*G:	*G:	*	*G:	*	*
*M6/8	*M6/8	*	*M6/8	*	*
=1	=1	=1	=1	=1	=1
*^	*^	*	*	*	*
*	*^	*	*	*	*	*	*
*	*	*	*^	*	*	*	*	*
*clefG2	*	*	*	*	*	*	*	*	*
!LO:TX:b:t=Cor.	!	!	!	!LO:TX:a:B:t=Allegretto inocente e Moderato.	!	!	!	!	!
!LO:TX:a:t=Clar.	!	!	!	!LO:TX:a:t=Flau.	!	!	!	!	!
!	!	!	!	!LO:TX:a:t=Ob.	!	!	!	!	!
!	!	!	!	!LO:TX:b:t=Clar.	!	!	!	!	!
[<2.g\	2.b/	2.ryy	2.ryy	(<2.dd\	2.gg/ 2.ddd	.	2.ryy	p	2.ryy
=2	=2	=2	=2	=2	=2	=2	=2	=2	=2
4.c\	2.g/]	4.cc	N[<4.ee\)	2.gg\	4.eee/	.	2.ryy	.	.
[<4.g\	.	4.b	4.dd\	.	4.ddd/	.	.	.	.
=3	=3	=3	=3	=3	=3	=3	=3	=3	=3
4.c\	2.g/]	2.cc	2.ryy	(<2.ee\N]	2.gg/ 2.eee	<	2.ryy	.	.
4.e\	.	.	.	.	.	[[	.	.	.
=4	=4	=4	=4	=4	=4	=4	=4	=4	=4
4.g\	4.b/	2.ryy	2.ryy	4.dd\)	4.gg/ 4.ddd	>	2.ryy	.	.
4ra	4ra	.	.	4ra	4ra	.	.	.	.
8ra	8ra	.	.	8ra	8ra	]]	.	.	.
*clefF4	*	*	*	*	*	*	*	*	*
=5	=5	=5	=5	=5	=5	=5	=5	=5	=5
!LO:TX:b:t=Cello.	!LO:TX:a:t=Vla.	!	!	!	!LO:TX:a:t=Vni.	!	!	!	!
2.G\	2.d/	2.ryy	2.ryy	[2.g\	(2.b/	pp	2.ryy	.	.
=6	=6	=6	=6	=6	=6	=6	=6	=6	=6
4.C\	4.e/	2.ryy	2.ryy	2.g\]	4.cc/	.	2.ryy	.	.
4.G\	4.d/	.	.	.	4.b/)	.	.	.	.
=7	=7	=7	=7	=7	=7	=7	=7	=7	=7
4.D\	2.c/	2.ryy	2.ryy	2.f#\	([4.b/	<	2.ryy	.	.
4.D#X\	.	.	.	.	4b/]	[ >	.	.	.
.	.	.	.	.	8a/	]]	.	.	.
=8	=8	=8	=8	=8	=8	=8	=8	=8	=8
4.E\	4.B/	2.ryy	2.ryy	4.e\	4.g/)	.	2.ryy	.	.
4rC	4rC	.	.	4r	4r	.	.	.	.
8rC	8rC	.	.	8r	8r	.	.	.	.
*clefG2	*	*	*	*	*	*	*	*	*
!!LO:LB:g=original	!	!	!	!	!	!	!	!	!
=9	=9	=9	=9	=9	=9	=9	=9	=9	=9
(2.g\	2.b/	2.ryy	2.ryy	(<2.dd\	2.gg/ 2.ddd	p	2.ryy	.	2.ryy
=10	=10	=10	=10	=10	=10	=10	=10	=10	=10
!LO:TX:b:t=Cor.	!	!	!	!	!	!	!	!	!
!LO:TX:a:t=Clar.	!	!	!	!LO:TX:a:t=Flau.	!	!	!	!	!
!	!	!	!	!LO:TX:a:t=Ob.	!	!	!	!	!
!	!	!	!	!LO:TX:b:t=Clar.	!	!	!	!	!
4.c\	2.ryy	4.cc	4.ee\)	2.gg\	4.eee/	.	2.ryy	.	.
4.g\	.	4.b)	4.dd\	.	4.ddd/	.	.	.	.
=11	=11	=11	=11	=11	=11	=11	=11	=11	=11
2.c\	[<4.g\	(4cc/	[<4.ee\	4.gg\ ([>4.eee/	2.ryy	<	2.ryy	.	.
.	.	8b	.	.	.	[[	.	.	.
.	8g\L]	4.a#	8ee\L]	8gg/L 8eee/]	.	>	.	.	.
.	8d#\	.	8ff#\	8fff#/	.	.	.	.	.
.	8e\J	.	8ee\J	8eee/J	.	]]	.	.	.
=12	=12	=12	=12	=12	=12	=12	=12	=12	=12
4.B\	4.f#/ 4.b)	2.ryy	2.ryy	4.dd#\	4.ddd#/)	p	2.ryy	.	.
4ra	4ra	.	.	4r	4r	.	.	.	.
8ra	8ra	.	.	8r	8r	.	.	.	.
*clefF4	*	*	*	*	*	*	*	*	*
=13	=13	=13	=13	=13	=13	=13	=13	=13	=13
!LO:TX:b:t=Cello.	!LO:TX:a:t=Vla.	!	!	!	!LO:TX:a:t=Vni.	!	!	!	!
2.G#\	(>2.fn/	2.ryy	2.ryy	2.b\	(2.dd/	.	2.ryy	.	.
=14	=14	=14	=14	=14	=14	=14	=14	=14	=14
4A\	4e/	2.ryy	2.ryy	4.a\	4cc#/	.	2.ryy	.	.
8F#\	8e-/	.	.	.	8ccn^</	.	.	.	.
4G\	4d/	.	.	4g\	4b/	.	.	.	.
8C^<\	8c/	.	.	8e\	8a/	.	.	.	.
=15	=15	=15	=15	=15	=15	=15	=15	=15	=15
2.D\	4B/	2.ryy	2.ryy	4d\	[4.g/	<	2.ryy	.	.
.	8B-/	.	.	8c#\	.	[[	.	.	.
.	(>4.A/)	.	.	4.cn\	4g/]	>	.	.	.
.	.	.	.	.	8f#/)	]]	.	.	.
=16	=16	=16	=16	=16	=16	=16	=16	=16	=16
4G\)	2.ryy	2.ryy	2.ryy	4B\	4g/	p	2.ryy	.	.
8GG/ 8BB 8D 8G	.	.	.	8ra	8ra	.	.	.	.
4GG/ 4BB 4D 4G	.	.	.	4ra	4ra	.	.	.	.
8GG/ 8BB 8D 8G	.	.	.	8ra	8ra	.	.	.	.
*	*	*	*v	*v	*	*	*	*	*
*	*	*	*v	*v	*	*	*	*
*	*v	*v	*	*	*	*	*
*v	*v	*	*	*	*	*
=17	=17	=17	=17	=17	=17
!	!LO:TX:a:t=Clar.	!	!	!	!
4GG/ 4C 4D 4F#	(16g#X/LL	.	2.ryy	.	.
.	16b/	.	.	.	.
.	16a/	.	.	.	.
.	16f#/J)	.	.	.	.
8GG/ 8C 8D 8F#	8d/J	.	.	.	.
4GG/ 4C 4D 4F#	4.dd^\	.	.	.	.
8GG/ 8C 8D 8F#	.	.	.	.	.
=18	=18	=18	=18	=18	=18
!	!LO:TX:a:t=Ob.	!	!	!	!
4GG/ 4BB 4D 4G	(16cc#X\LL	.	2.ryy	.	.
.	16ee\	.	.	.	.
.	16dd\	.	.	.	.
.	16b\J)	.	.	.	.
8GG/ 8BB 8D 8G	8g\J	.	.	.	.
4E^\ 4G 4B	4.gg^\	.	.	.	.
8E\ 8G 8B	.	.	.	.	.
=19	=19	=19	=19	=19	=19
!	!LO:TX:a:t=Vno.	!	!	!	!
4C\ 4E 4A	(16dd#X\LL	p	2.ryy	.	.
.	16ff#\	.	.	.	.
.	16ee\	.	.	.	.
.	16cc\J)	.	.	.	.
8C\ 8E 8A	8a\J	.	.	.	.
4D\ 4F# 4c	(16g#X/LL	.	.	.	.
.	16b/	.	.	.	.
.	16a/	.	.	.	.
.	16f#/J)	.	.	.	.
8D\ 8F# 8c	8d/J	.	.	.	.
=20	=20	=20	=20	=20	=20
!	!LO:TX:a:t=Ob.	!	!	!	!
4GG/ 4BB 4D 4G	(16cc#X\LL	.	2.ryy	.	.
.	16ee\	.	.	.	.
.	16dd\	.	.	.	.
.	16b\J)	.	.	.	.
8GG/ 8BB 8D 8G	8g\J	.	.	.	.
4GG/ 4BB 4D 4G	4.d^>/	.	.	.	.
8GG/ 8BB 8D 8G	.	.	.	.	.
=21	=21	=21	=21	=21	=21
!	!LO:TX:a:t=Clar.	!	!	!	!
4GG/ 4C 4D 4F#	(16g#X/LL	.	2.ryy	.	.
.	16b/	.	.	.	.
.	16a/	.	.	.	.
.	16f#/J)	.	.	.	.
8GG/ 8C 8D 8F#	8d/J	.	.	.	.
4GG/ 4C 4D 4F#	4.dd^\	.	.	.	.
8GG/ 8C 8D 8F#	.	.	.	.	.
=22	=22	=22	=22	=22	=22
!	!LO:TX:a:t=Ob.	!	!	!	!
4GG/ 4BB 4D 4G	(16cc#X\LL	.	2.ryy	.	.
.	16ee\	.	.	.	.
.	16dd\	.	.	.	.
.	16b\J)	.	.	.	.
8G\ 8B 8d	8g\J	.	.	.	.
*	*	*^	*	*	*
!	!LO:TX:b:t=riten-:dur=2e2sq:ext=cd:problem:text with extention lines 	!	!LO:DY:b=2	!	!	!
!	!	!	!LO:HP:b=2	!	!	!
4E-X\ 4G 4B-X 4d-X	(4.gg^\	f >	f >	.	.	.
(<8E-\ (<8G (>8B- (>8d-	.	]]	]]	.	.	.
!!LO:LB:g=original	!	!	!	!	!
*	*	*v	*v	*	*	*
=23	=23	=23	=23	=23	=23
!	!	!	!LO:TX:a:B:t=D. MARYA.	!	!
8A-X\)) 8c))	8aa-X\L)	]	2.r	.	.
8rC	(16ddn\L	.	.	.	.
.	16ffn\JJ)	.	.	.	.
8rC;	8ee-X;\	.	.	.	.
4D\ 4F#X 4c	8ra	p	.	.	.
!	!LO:TX:a:t=Vno.	!	!	!	!
!	!LO:TX:b:B:t=a tempo	!	!	!	!
.	(16dn/LL	.	.	.	.
.	16bn/J	.	.	.	.
8rC	8a/J)	.	.	.	.
=24	=24	=24	=24	=24	=24
(4GG'/ 4D 4G	(4B'/ 4g	.	2.r	.	.
8GG'/ 8D	8B'/ 8g	.	.	.	.
4GG'/ 4D	4B'/ 4g	.	.	.	.
8GG'/) 8D	8B'/) 8g	.	.	.	.
=25	=25	=25	=25	=25	=25
!	!LO:TX:b:i:t=simile	!	!	!	!
4GG/ 4D	4B/ 4g	.	2.r	.	.
8GG/ 8D	8B/ 8g	.	.	.	.
4GG/ 4D	4B/ 4g	.	.	.	.
8GG/ 8D	8B/ 8g	.	.	.	.
=26	=26	=26	=26	=26	=26
!	!	!	!LO:TX:a:i:t=dol.	!	!
4GG/ 4D 4G	4B/ 4g	.	4.dd\	Bło-	.
8GG/ 8D 8G	8B/ 8g	.	.	.	.
4GG/ 4D 4G	4B/ 4g	.	4cc#X\	-giéj	.
8GG/ 8D 8G	8B/ 8g	.	8dd\	prze-	.
=27	=27	=27	=27	=27	=27
4GG/ 4G	4A#X/ 4c#X 4g	>	4.gg\	-szło-	.
8GG/ 8G	8A#/ 8c# 8g	]	.	.	.
4GG/ 4G	4A#/ 4c# 4g	.	4ff#\	-śći	.
8GG/ 8G	8A#/ 8c# 8g	.	8ee\	sny	.
=28	=28	=28	=28	=28	=28
4GG/ 4D 4G	4B/ 4d 4g	.	[4.dd\	zło-	.
8GG/ 8D	8B/ 8g	.	.	.	.
4GG/ 4D	4B/ 4g	.	4dd\]	.	.
8GG/ 8D	8B/ 8g	.	8b\	.	.
=29	=29	=29	=29	=29	=29
4E\	4B/ 4e 4g	.	2.g/	-te	.
8E\	8B/ 8e 8g	.	.	.	.
4E\	4B/ 4e 4g	.	.	.	.
8E\	8B/ 8e 8g	.	.	.	.
!!LO:LB:g=original	!	!	!	!	!
=30	=30	=30	=30	=30	=30
4E\	4A/ 4c#X 4g	.	4.a/	do	.
8E\	8A/ 8c# 8g	.	.	.	.
4E\	4A/ 4c# 4g	.	4b\	du-	.
8E\	8A/ 8c# 8g	.	8a/	-szy	.
=31	=31	=31	=31	=31	=31
4D\	4A/ 4d 4f#	.	4.dd\	wa-	.
8D\	8A/ 8d 8f#	.	.	.	.
4D\	4A/ 4cn 4f#	.	4a/	-bią	.
8D\	8A/ 8c 8f#	.	8b\	da-	.
=32	=32	=32	=32	=32	=32
4G\	4B/ 4d 4g	.	2.g/	-re-	.
8GG/	8B/ 8d 8g	.	.	.	.
4C/	4c/ 4e 4g	.	.	.	.
8E\	8c/ 8e 8g	.	.	.	.
=33	=33	=33	=33	=33	=33
4GG/ 4D	4B/ 4g	.	4d/	-mno	.
8GG/ 8D	8B/ 8g	.	8r	.	.
4GG/ 4D	4B/ 4g	.	4r	.	.
8GG/ 8D	8B/ 8g	.	8r	.	.
=34	=34	=34	=34	=34	=34
4GG/ 4D	4B/ 4g	<	4.dd\	By	.
8GG/ 8D	8B/ 8g	.	.	.	.
4GG/ 4D	4B/ 4g	.	4cc#X\	stłu-	.
8GG/ 8D	8B/ 8g	[[	8dd\	-mić	.
=35	=35	=35	=35	=35	=35
4GG/ 4G	4A/ 4c#X 4g	>	4.gg\	ser-	.
8GG/ 8G	8A/ 8c# 8g	.	.	.	.
4GG/ 4G	4A/ 4c# 4g	.	4ff#\	-ca	.
8GG/ 8G	8A/ 8c# 8g	]	8ee\	tę-	.
=36	=36	=36	=36	=36	=36
4GG/ 4G	4B/ 4d 4g	p	[4.dd\	-skno-	.
8GG/ 8D	8B/ 8g	.	.	.	.
4GG/ 4D	4B/ 4g	.	4dd\]	.	.
8GG/ 8D	8B/ 8g	.	8b\	.	.
=37	=37	=37	=37	=37	=37
4EE/ 4E	4B/ 4e 4g	.	2.g/	-tę	.
8E\	8B/ 8e 8g	.	.	.	.
4E\	4B/ 4e 4g	.	.	.	.
8E\	8B/ 8e 8g	.	.	.	.
!!LO:PB:g=original	!	!	!	!	!
=38	=38	=38	=38	=38	=38
4E\	4A/ 4c#X 4g	<	4.a/	W méj	.
8E\	8A/ 8c# 8g	.	.	.	.
4E-X\	4A/ 4c# 4g	[ >	4b^\	my-	.
8E-\	8A/ 8c# 8g	]]	8a/	-sli	.
=39	=39	=39	=39	=39	=39
4D\	4A/ 4d 4f#	p	4.dd\	głu-	.
8D\	8A/ 8d 8f#	.	.	.	.
4D\	4A/ 4cn 4f#	.	4a/	-cho	.
8D\	8A/ 8c 8f#	.	8b\	i	.
=40	=40	=40	=40	=40	=40
4GG/ 4D	4B/ 4g	.	2.g/	cie-	.
8GG/ 8D	8B/ 8g	.	.	.	.
4GG/ 4D	4B/ 4g	.	.	.	.
8GG/ 8D	8B/ 8g	.	.	.	.
.	.	.	(16qqb/L	.	.
.	.	.	16qqa/J	.	.
=41	=41	=41	=41	=41	=41
4GG/ 4D	4B/ 4g	.	4g/)	-mno	.
8GG/ 8D	8B/ 8g	.	8r	.	.
4GG/ 4D	4B/ 4g	.	4r	.	.
8GG/ 8D	8B/ 8g	.	8r	.	.
=42	=42	=42	=42	=42	=42
4DD/ 4D	8ra	.	4.a/	Bło-	p
.	(8f#'/L 8a	.	.	.	.
8rC	8f#'/J) 8a	.	.	.	.
4DD/ 4D	8ra	.	4b\	-giéj	.
.	(8g'/L 8b	.	.	.	.
8rC	8e'/J) 8g	.	8cc#X\	prze-	.
=43	=43	=43	=43	=43	=43
4DD/ 4D	8ra	.	4.dd\	-szło-	.
.	8d/L 8f#	<	.	.	.
8rC	8d/J 8f#	.	.	.	.
4AA\ 4A	8ra	.	4ee\	-ści	.
.	8c#X/L 8a	.	.	.	.
8rC	8c#/J 8a	[[	8ee\	sny	.
=44	=44	=44	=44	=44	=44
4AA#X\ 4A#X	8ra	.	[4.ff#\	zło-	.
.	8c#X/L 8f#	>	.	.	.
8rC	8c#/J 8f#	.	.	.	.
4FF#/ 4F#	8ra	.	4ff#\]	.	.
.	8c#/L 8f# 8a#X	.	.	.	.
8rC	8c#/J 8f# 8a#	]]	8ee\	.	.
!!LO:LB:g=original	!	!	!	!	!
=45	=45	=45	=45	=45	=45
4BB\ 4B	8ra	p	4dd\	-te	.
.	8d/L 8f# 8b	.	.	.	.
8rC	8d/J 8f# 8b	.	8dd\	do	.
4CC/ 4BB	8ra	.	4cc#X\	du-	.
.	8B/L 8d 8f#	.	.	.	.
8rC	8B/J 8d 8f#	.	8b\	-szy	.
=46	=46	=46	=46	=46	=46
4CC#X/ 4C#X	8ra	.	8b\	wa-	.
.	8A/L 8e 8g	.	8a/	-bią	.
8rC	8A/J 8e 8g	.	8a/	da-	.
4AAA/ 4AA	8ra	.	(4b^\	-re-	.
.	8A/L 8c#X 8g	.	.	.	.
8rC	8A/J 8c# 8g	.	8a/)	.	.
=47	=47	=47	=47	=47	=47
4DD/ 4D	8ra	.	4f#/	-mno	.
.	8A/L 8d 8f#	.	.	.	.
8rAA	8A/J 8d 8f#	.	8r	.	.
4BBB/ 4BB	8ra	.	4r	.	.
.	8f#/L 8b 8dd	.	.	.	.
8rC	8d/J 8f# 8b	.	8r	.	.
=48	=48	=48	=48	=48	=48
4EE/ 4E	8ra	.	4.e/	da-	.
.	8e/L 8a 8cc#X	.	.	.	.
8rC	8c#X/J 8e 8a	.	.	.	.
4EE/ 4E	8ra	.	(4cc#X\	-re-	.
.	8d/L 8e 8g#X	.	.	.	.
8rC	8d/J 8e 8g#	.	8b\)	.	.
=49	=49	=49	=49	=49	=49
2.AA/	8ra	.	4a/	-mno	.
.	(>8c#X/L 8a	<	.	.	.
.	8d/J 8g#X	.	8r	.	.
.	8e/L 8gn	.	4r	.	.
.	8d/ 8f#	[ >	.	.	.
.	8G</J) 8c# 8e	]]	8r	.	.
=50	=50	=50	=50	=50	=50
4DD\ 4D	8F#</L 8d	.	4.a/	By	.
.	8d/ 8f#	.	.	.	.
8rC	8f#/J 8a	.	.	.	.
4DD/ 4D	8ra	.	4b\	stłu-	.
.	8g/L 8b	.	.	.	.
8rC	8e/J 8g	.	8cc#X\	-mić	.
!!LO:LB:g=original	!	!	!	!	!
=51	=51	=51	=51	=51	=51
4D\	8ra	.	4.dd\	ser-	.
.	8d/L 8f#	<	.	.	.
8rC	8d/J 8f#	.	.	.	.
4AA\ 4A	8ra	.	4ee\	-ca	.
.	8c#X/L 8e	.	.	.	.
8GG/ 8G	8B/J 8e	[	8ee\	tę-	.
=52	=52	=52	=52	=52	=52
4FF#/ 4F#	8ra	.	[4.ff#\	-skno-	.
.	8A#X/L 8f#	>	.	.	.
8rC	8A#/J 8f#	.	.	.	.
4AAA#X/ 4AA#X	8ra	.	4ff#\]	.	.
.	8F#/L 8c#X 8f#	.	.	.	.
8rC	8F#/J 8c# 8f#	]	8ee\	.	.
=53	=53	=53	=53	=53	=53
4BBB/ 4BB	8ra	.	4.dd\	-tę	.
.	8B/L 8d 8f#	.	.	.	.
8rC	8B/J 8d 8f#	.	.	.	.
((4.GGG#X^>/ 4.GG#X	8r	.	8dd\	w my-	.
.	8B/L 8d#X 8e	.	8cc#X\	-śli	.
.	8B/J 8d# 8e	.	8b\	méj,	.
=54	=54	=54	=54	=54	=54
4AAA/)) 4AA	8ra	.	8b\	głu-	.
.	8A/L 8d 8f#	.	8a/	-cho	.
8rC	8A/J 8d 8f#	.	8a/	i	.
4BBB/ 4BB	8ra	.	4dd^\	cie-	.
.	8B/L 8d 8f#	.	.	.	.
8rC	8B/J 8d 8f#	.	8f#/	-mno	.
=55	=55	=55	=55	=55	=55
4GGG/ 4GG	8ra	.	8e/	głu-	.
.	(8B'/L 8d 8e	.	8d#X/	-cho	.
8rC	8B-X'/J) 8d 8e	.	8e/	i	.
4AAA/ 4AA	8ra	.	(4b^\	cie-	.
.	(8A'/L 8c 8e	.	.	.	.
8rC	8G'/J) 8c 8e	.	8a/)	.	.
=56	=56	=56	=56	=56	=56
[2.D\	8F#/ 8d	.	4d/	-mno	.
*	*^	*	*	*	*
!	!LO:TX:a:t=Clar	!	!	!	!	!
.	(8dd/L	8f#\L	<	.	.	.
.	8cc#X/J	8g\J	.	8r	.	.
.	4.ccn/	8a\L	.	4r	.	.
.	.	8e\	.	.	.	.
.	.	8f#\J	[[	8r	.	.
!!LO:LB:g=original	!	!	!	!	!	!
=57	=57	=57	=57	=57	=57	=57
2.D\]	4b/	8g\L	.	2.r	.	.
.	.	8d</	.	.	.	.
.	8b-X/	8c#X</J	>	.	.	.
.	8a/L	4.cn</	.	.	.	.
.	8e/	.	.	.	.	.
.	8f#/J)	.	]]	.	.	.
*	*v	*v	*	*	*	*
=58	=58	=58	=58	=58	=58
!	!	!	!	!	!LO:DY:a
4GG/ 4D	4B/ 4g	p	4.dd\	Bło-	p
8GG/ 8D	8B/ 8g	<	.	.	.
4GG/ 4D	4B/ 4g	.	4cc#X\	-giéj	.
8GG/ 8D	8B/ 8g	[[	8dd\	prze-	.
=59	=59	=59	=59	=59	=59
4GG/ 4G	4A#X/ 4c#X 4g	>	4.gg\	-szło-	.
8GG/ 8G	8A#/ 8c# 8g	.	.	.	.
4GG/ 4G	4A#/ 4c# 4g	.	4ff#\	-ści	.
8GG/ 8G	8A#/ 8c# 8g	]	8ee\	sny	.
=60	=60	=60	=60	=60	=60
4GG/ 4G	4B/ 4d 4g	p	[4.dd\	zło-	.
8GG/ 8D 8G	8B/ 8g	.	.	.	.
4GG/ 4D 4G	4B/ 4g	.	4dd\]	.	.
8GG/ 8D 8G	8B/ 8g	.	8b\	.	.
=61	=61	=61	=61	=61	=61
4E\	4B/ 4e 4g	.	2.g/	-te	.
8E\	8B/ 8e 8g	.	.	.	.
4E\	4B/ 4e 4g	.	.	.	.
8E\	8B/ 8e 8g	.	.	.	.
=62	=62	=62	=62	=62	=62
4E\	4A/ 4c#X 4g	<	4.a/	do	.
8E\	8A/ 8c# 8g	.	.	.	.
4E-X\	4A/ 4c# 4g	[ >	4b^\	du-	.
8E-\	8A/ 8c# 8g	]]	8a/	-szy	.
=63	=63	=63	=63	=63	=63
4D\	4A/ 4d 4f#	p	4.dd\	wa-	.
8D\	8A/ 8d 8f#	.	.	.	.
4D\	4A/ 4cn 4f#	.	4a/	-bią	.
8D\	8A/ 8c 8f#	.	8b\	da-	.
!!LO:LB:g=original	!	!	!	!	!
=64	=64	=64	=64	=64	=64
4GG/ 4D 4G	4B/ 4g	.	2.g/	-re-	.
8GG/ 8D 8G	8B/ 8g	.	.	.	.
4GG/ 4D 4G	4B/ 4g	.	.	.	.
8GG/ 8D 8G	8B/ 8g	.	.	.	.
.	.	.	(16qqb/L	.	.
.	.	.	16qqa/J)	.	.
=65	=65	=65	=65	=65	=65
4GG/ 4D 4G	4B/ 4g	.	4g/	-mno	.
8GG/ 8D 8G	8B/ 8g	.	8r	.	.
4GG/ 4D 4G	4B/ 4g	.	4r	.	.
8GG/ 8D 8G	8B/ 8g	.	8r	.	.
=66	=66	=66	=66	=66	=66
4GG/ 4C 4D 4F#	(16g#X/LL	p	2.r	.	.
!	!LO:TX:b:i:t=dol	!	!	!	!
.	16b/	.	.	.	.
.	16a/	.	.	.	.
.	16f#/J)	.	.	.	.
8GG/ 8C 8D 8F#	8d/J	.	.	.	.
4GG/ 4C 4D 4F#	4.dd^\	.	.	.	.
8GG/ 8C 8D 8F#	.	.	.	.	.
=67	=67	=67	=67	=67	=67
4GG/ 4D 4G	(16cc#X\LL	.	2.r	.	.
.	16ee\	.	.	.	.
.	16dd\	.	.	.	.
.	16b\J)	.	.	.	.
8GG/ 8D 8G	8g\J	.	.	.	.
4E^\ 4G 4B	4.gg^\	.	.	.	.
8E\ 8G 8B	.	.	.	.	.
=68	=68	=68	=68	=68	=68
4C\ 4E 4A	(16dd#X^<\LL	.	2.r	.	.
.	16ff#\	.	.	.	.
.	16ee\	.	.	.	.
.	16cc#X\J)	.	.	.	.
8C\ 8E 8A	8a\J	.	.	.	.
4D\ 4F# 4c	(16g#X^>/LL	.	.	.	.
.	16b/	.	.	.	.
.	16a/	.	.	.	.
.	16f#/J)	.	.	.	.
8D\ 8F# 8c	8d/J	.	.	.	.
=69	=69	=69	=69	=69	=69
4GG/ 4D 4G	(16cc#X^\LL	.	2.r	.	.
.	16ee\	.	.	.	.
.	16dd\	.	.	.	.
.	16b\J)	.	.	.	.
8GG/ 8D 8G	8g\J	.	.	.	.
4GG/ 4D 4G	4.d^>/	.	.	.	.
8GG/ 8D 8G	.	.	.	.	.
!!LO:PB:g=original	!	!	!	!	!
=70	=70	=70	=70	=70	=70
4GG/ 4C 4D 4F#	(16g#X/LL	.	2.r	.	.
.	16b/	.	.	.	.
.	16a/	.	.	.	.
.	16f#/J)	.	.	.	.
8GG/ 8C 8D 8F#	8d/J	.	.	.	.
4GG/ 4C 4D 4F#	4.dd^\	.	.	.	.
8GG/ 8C 8D 8F#	.	.	.	.	.
=71	=71	=71	=71	=71	=71
4GG/ 4D 4G	(16cc#X\LL	<	2.r	.	.
.	16ee\	.	.	.	.
.	16dd\	.	.	.	.
.	16b\J)	.	.	.	.
8GG/ 8D 8G	8g\J	[	.	.	.
!	!LO:TX:b:t=ri-tenu-to:dur=2e2sq:ext=cd:problem:text with extention lines 	!	!	!	!
4E-X\ 4B-X 4d-X	4.gg\	f >	.	.	.
(<8E-\ (>8B- (>8d-	.	]]	.	.	.
=72	=72	=72	=72	=72	=72
!	!LO:N:vis=8	!	!	!	!
8A-X\) 8c))	8aa-X\L	<	2.r	.	.
8rC	(16dd\L	.	.	.	.
.	16ffn\JJ)	[	.	.	.
8rC;	8ee-X;\	>	.	.	.
4D\ 4F#X 4c	8ra	]	.	.	.
!	!LO:TX:b:B:t=a tempo	!	!	!	!
.	(16d/LL	.	.	.	.
.	16bn/J	.	.	.	.
8rC	8a/J)	.	.	.	.
=73	=73	=73	=73	=73	=73
!	!LO:TX:a:t=Cor.	!	!	!	!
4GG\ 4D 4B	8g/L	<	2.r	.	.
.	8g/	.	.	.	.
8rC	8g/J	.	.	.	.
4rC	8g/L	.	.	.	.
.	8g/	.	.	.	.
8rC	8g/J	[[	.	.	.
=74	=74	=74	=74	=74	=74
*	*tremolo	*	*	*	*
2.rF	8g/L	>	2.r	.	.
.	8g/	.	.	.	.
.	8g/	.	.	.	.
.	8g/	.	.	.	.
.	8g/	.	.	.	.
.	8g/J	]]	.	.	.
*	*Xtremolo	*	*	*	*
=75	=75	=75	=75	=75	=75
!	!	!	!LO:TX:a:i:t=con dolore	!	!
4EE/	8ra	p	4.b\	Dziś	.
.	8G/L 8B 8e	.	.	.	.
8rC	8G/J 8B 8e	.	.	.	.
4GG/	8ra	.	4cc\	o-	.
.	8G/L 8B 8e	.	.	.	.
8rC	8G/J 8B 8e	.	8b\	-ko	.
=76	=76	=76	=76	=76	=76
4BB/	8ra	.	4.b\	smu-	.
.	8G/L 8B 8e	.	.	.	.
8rC	8G/J 8B 8e	.	.	.	.
4E\	8ra	.	4a/	-tkiem	.
.	8G/L 8B 8e	.	.	.	.
8rC	8G/J 8B 8e	.	8g/	się	.
!!LO:LB:g=original	!	!	!	!	!
=77	=77	=77	=77	=77	=77
!	!LO:TX:a:t=Flau.	!	!	!	!
8D#X\L	(16eee#X\LL	.	2.g^>/	łza-	.
.	16gggn\	.	.	.	.
8A\ 8B	16fff#\	.	.	.	.
.	16ddd#X\J)	.	.	.	.
8A\J 8B	8bb\J	.	.	.	.
!	!LO:TX:a:t=Clar.	!	!	!	!
8BB\L	(16ee#X\LL	.	.	.	.
.	16ggn\	.	.	.	.
8A\ 8B 8d#X	16ff#\	.	.	.	.
.	16dd#X\J)	.	.	.	.
8A\J 8B 8d#	8b\J	.	.	.	.
=78	=78	=78	=78	=78	=78
!	!LO:TX:a:t=Vno.	!	!	!	!
8D#X\L	(16e#X/LL	.	4f#/	-wi	.
.	16gn/	.	.	.	.
8A\ 8B	16f#/	.	.	.	.
.	16d#X/J)	.	.	.	.
8A\J 8B	8B/J	.	8r	.	.
8BB\L	(16a#X\LL	.	4r	.	.
.	16b\	.	.	.	.
8A\ 8B 8d#X	16dd#X\	.	.	.	.
.	16ff#\J)	.	.	.	.
8A\J 8B 8d#	8bb\J	.	8r	.	.
=79	=79	=79	=79	=79	=79
4EE/	8ra	.	4.b\	I	.
.	8B/L 8e 8g	.	.	.	.
8rC	8B/J 8e 8g	.	.	.	.
4GG/	8ra	.	4cc\	go-	.
.	8B/L 8e 8g	.	.	.	.
8rC	8B/J 8e 8g	.	8b\	-rżko	.
=80	=80	=80	=80	=80	=80
4BB/	8ra	.	4.ee\	ser-	.
.	8B/L 8e 8g	.	.	.	.
8rC	8B/J 8e 8g	.	.	.	.
4E\	8ra	.	4dd\	-ce	.
.	8B/L 8e 8g	.	.	.	.
8rC	8B/J 8e 8g	.	8cc\	się	.
=81	=81	=81	=81	=81	=81
!	!	!	!LO:N:vis=[2+4]	!	!
8D#X\L	(16eee#X\LL	.	2.b\	ża-	.
.	16gggn\	.	.	.	.
8A\ 8B	16fff#y\	.	.	.	.
.	16ddd#X\J)	.	.	.	.
8A\J 8B	8bb\J	.	.	.	.
8D#\L	(16ee#X\LL	.	.	.	.
.	16ggn\	.	.	.	.
8A\ 8B	16ff#\	.	.	.	.
.	16dd#X\J)	.	.	.	.
8A\J 8B	8b\J	.	.	.	.
.	.	.	(16qqdd/L	.	.
.	.	.	16qqcc/J)	.	.
=82	=82	=82	=82	=82	=82
8D\L	(16e#X/LL	.	4b\	-li	.
.	16gn/	.	.	.	.
8F#\ 8A	16f#/	.	.	.	.
.	16d#X/J)	.	.	.	.
8F#\J 8A	8B/J	.	8r	.	.
8BB\L	(16a#X\LL	.	4r	.	.
.	16b\	.	.	.	.
8A\ 8B	16dd#X\	.	.	.	.
.	16ff#\J)	.	.	.	.
8A\J 8B	8bb\J	.	8b\	Z tych	.
!!LO:LB:g=original	!	!	!	!	!
=83	=83	=83	=83	=83	=83
2.EE/ 2.E	8ra	.	4.b\	cier-	.
.	8G/L 8B 8e	.	.	.	.
.	8G/J 8B 8e	.	.	.	.
!	!	!	!	!	!LO:DY:a
.	8G/L 8B 8e	.	4.b\	-pień	<
.	8B/ 8e 8g	<	.	.	.
.	8B/J 8e 8g	.	.	.	.
=84	=84	=84	=84	=84	=84
((2.EE#X/ 2.E#X	8ra	.	4.dd\	któż	.
.	8B/L 8d 8g#X	.	.	.	.
.	8B/J 8d 8g#	.	.	.	.
.	8ra	[	4cc#X\	mnie	[
.	8B/L 8d 8g#	.	.	.	.
.	8B/J 8d 8g#	.	8b\	wy-	.
=85	=85	=85	=85	=85	=85
!	!	!	!	!	!LO:DY:a
!	!	!	!	!	!LO:DY:a
8FF#/)) 8F#	(16fff#\LL	f	2.ff#\	-ba-	f > ]]
.	16ggg\	.	.	.	.
8B\L 8d	16fff#\	.	.	.	.
.	16ddd\J)	.	.	.	.
8B\J 8d	8bb\J	>	.	.	.
8FF#\L	(16ddd\LL	.	.	.	.
.	16eee\	.	.	.	.
8B\ 8d	16ddd\	.	.	.	.
.	16bb\J)	.	.	.	.
8B\J 8d	8gg\J	]]	.	.	.
=86	=86	=86	=86	=86	=86
8BB\L	(16bb\LL	p	4.f#/	-wi	.
.	16ccc#X\	.	.	.	.
8B\ 8d	16bb\	.	.	.	.
.	16ff#\J)	.	.	.	.
8B\J 8d	8dd\J	.	.	.	.
8D\L	(16ff#\LL	.	4r	.	.
.	16gg\	.	.	.	.
8B\ 8d	16ff#\	.	.	.	.
.	16dd\J)	.	.	.	.
8B\J 8d	8b\J	.	8f#/	Gdy	.
=87	=87	=87	=87	=87	=87
8F#\L	4f#/	.	4.f#/	nie	.
8B\ 8d	.	.	.	.	.
8B\J 8d	8ra	.	.	.	.
8B\L 8d	4ra	.	4.f#/	ma	.
8B\ 8d	.	.	.	.	.
8B\J 8d	8ra	.	.	.	.
=88	=88	=88	=88	=88	=88
2.FF#/ 2.F#	8ra	.	4.dd\	tych	.
.	8B/L 8d 8f#	.	.	.	.
.	8B/J 8d 8f#	.	.	.	.
.	8A#X/L 8e 8f#	.	4cc#X\	co	.
.	8A#/ 8e 8f#	.	.	.	.
.	8c#X/J 8e 8f#	.	8a#X/	ko-	.
!!LO:LB:g=original	!	!	!	!	!
=89	=89	=89	=89	=89	=89
*^	*	*	*	*	*
*	*^	*	*	*	*	*
2.B/	4.F#\	[<2.BB\	8d#X/	.	4.cc#X\	-cha-	.
.	.	.	(8ccc#X^\L	.	.	.	.
.	.	.	8bb\J)	.	.	.	.
.	4.A\	.	8r	.	4b\	-li	.
.	.	.	(8cc#X^\L	.	.	.	.
.	.	.	8b\J)	.	8r	.	.
*	*v	*v	*	*	*	*	*
=90	=90	=90	=90	=90	=90	=90
4.E/ 4.G#X	2.BB\]	8r	.	2.r	.	.
.	.	(8ccc#X^\L	.	.	.	.
.	.	8bb\J)	.	.	.	.
4.D#X/ 4.F#	.	8r	.	.	.	.
.	.	(8cc#X^\L	.	.	.	.
.	.	8b\J)	.	.	.	.
*v	*v	*	*	*	*	*
=91	=91	=91	=91	=91	=91
!	!LO:TX:a:i:t=dolcissimo	!	!	!	!
4EE/ 4E	8ra	.	4.b\	Szczę-	.
.	8G#X/L 8B 8e	.	.	.	.
8rC	8G#/J 8B 8e	.	.	.	.
4GG#X/	8ra	.	4cc#X\	-śli-	.
.	8G#/L 8B 8e	.	.	.	.
8rC	8G#/J 8B 8e	.	8b\	-wéj	.
=92	=92	=92	=92	=92	=92
*	*tremolo	*	*	*	*
4BB/	8G#y/L 8B 8e	.	4.b\	w gro-	.
.	8G#/ 8B 8e	.	.	.	.
8rC	8G#/ 8B 8e	.	.	.	.
4E\	8G#/ 8B 8e	.	4a/	-nie	.
.	8G#/ 8B 8e	.	.	.	.
8rC	8G#/J 8B 8e	.	8g#X/	ro-	.
=93	=93	=93	=93	=93	=93
8D#X\L	(16aa#X\LL	.	2.g#X^>/	-dzi-	.
.	16ccc#X\	.	.	.	.
8A\ 8B	16bb\	.	.	.	.
.	16aan\J)	.	.	.	.
8A\J 8B	8ff#\J	.	.	.	.
8F#\L	(16ee#X\LL	.	.	.	.
.	16gg#X\	.	.	.	.
8A\ 8B	16ff#\	.	.	.	.
.	16dd#X\J)	.	.	.	.
8A\J 8B	8b\J	.	.	.	.
=94	=94	=94	=94	=94	=94
8D#X\L	(16a#X/LL	.	4f#/	-ny	.
.	16cc#X/	.	.	.	.
8A\ 8B	16b/	.	.	.	.
.	16an/J)	.	.	.	.
8A\J 8B	8f#/J	.	8r	.	.
8BB\L	(16e#X/LL	.	4r	.	.
.	16g#X/	.	.	.	.
8A\ 8B	16f#/	.	.	.	.
.	16d#X/J)	.	.	.	.
8A\J 8B	8B/J	.	8r	.	.
!!LO:LB:g=original	!	!	!	!	!
=95	=95	=95	=95	=95	=95
*	*Xtremolo	*	*	*	*
4EE/ 4E	8ra	.	4.b\	Ser-	.
.	8G#X/L 8B 8e	.	.	.	.
8rC	8G#/J 8B 8e	.	.	.	.
4GG#X/	8ra	.	4a#X/	-ce	.
.	8G#/L 8B 8e	.	.	.	.
8rC	8G#/J 8B 8e	.	8b\	ros-	.
=96	=96	=96	=96	=96	=96
*	*tremolo	*	*	*	*
4BB/	8G#X/L 8B 8e	.	4.ee\	-ko-	.
.	8G#/ 8B 8e	.	.	.	.
8rC	8G#/ 8B 8e	.	.	.	.
4E\	8G#/ 8B 8e	.	4dd#X\	-szą	.
.	8G#/ 8B 8e	.	.	.	.
8rC	8G#/J 8B 8e	.	8cc#X\	tchnie	.
=97	=97	=97	=97	=97	=97
8D#X\L	(16eee#X\LL	.	2.cc#X\	no-	.
.	16ggg#X\	.	.	.	.
8A\ 8B	16fff#\	.	.	.	.
.	16ddd#X\J)	.	.	.	.
8A\J 8B	8bb\J	.	.	.	.
8F#\L	(16aa#X\LL	.	.	.	.
.	16ccc#X\	.	.	.	.
8A\ 8B	16bb\	.	.	.	.
.	16aan\J)	.	.	.	.
8A\J 8B	8ff#\J	.	.	.	.
=98	=98	=98	=98	=98	=98
8D#X\L	(16ee#X^\LL	.	4b\	-wą	.
.	16gg#X\	.	.	.	.
8A\ 8B	16ff#\	.	.	.	.
.	16dd#X\J)	.	.	.	.
8A\J 8B	8b\J	.	8r	.	.
8BB\L	(16a#X^/LL	.	4r	.	.
.	16cc#X/	.	.	.	.
8A\ 8B	16b/	.	.	.	.
.	16an/J)	.	.	.	.
8A\J 8B	8f#/J	.	8r	.	.
=99	=99	=99	=99	=99	=99
4EE/	8ra	.	4.ee\	gdy	.
*	*Xtremolo	*	*	*	*
.	8G#X/L 8B 8e	.	.	.	.
8rC	8G#/J 8B 8e	.	.	.	.
4E\	8ra	.	4ee\	mój	.
.	8G#/L 8B 8e	.	.	.	.
!	!	!	!	!	!LO:DY:a
8rC	8G#/J 8B 8e	.	8ee\	wy-	<
=100	=100	=100	=100	=100	=100
*	*tremolo	*	*	*	*
4D\	8G#X/L 8B 8e	<	4.ee\	-bra-	.
.	8G#/ 8B 8e	.	.	.	.
8rC	8G#/ 8B 8e	.	.	.	.
4DD/	8G#/ 8B 8e	.	4ee\	-ny	.
.	8G#/ 8B 8e	.	.	.	.
8rC	8G#/J 8B 8e	[[	[8ee\	je-	[
!!LO:PB:g=original	!	!	!	!	!
=101	=101	=101	=101	=101	=101
!	!	!	!	!	!LO:DY:a
4CC#X/	8ra	f	2.ee\_	-dy-	f
*	*Xtremolo	*	*	*	*
.	8A/L 8e	.	.	.	.
8rC	8A/J 8e	.	.	.	.
4C#X/	8A/L 8e	.	.	.	.
.	8A/ 8e	.	.	.	.
8rC	8A/J 8e	.	.	.	.
=102	=102	=102	=102	=102	=102
!	!	!	!	!	!LO:DY:a
4Cn/	8ra	.	4.ee\]	.	>
.	8A#X/L 8e 8g	>	.	.	.
8rC	8A#/J 8e 8g	.	.	.	.
4CCn/	8A#/L 8e 8g	.	4.a#X/	-ny	]]
.	8A#/ 8e 8g	.	.	.	.
8rC	8A#/J 8e 8g	]]	.	.	.
=103	=103	=103	=103	=103	=103
!	!	!	!	!	!LO:DY:a
4BBB/ 4BB	8ra	p	4.b\	mi-	p
.	8B/L 8e 8g#X	.	.	.	.
8rC	8B/J 8e 8g#	.	.	.	.
4rC	8B/L 8e 8g#	.	4cc#X\	-ło-	.
.	8B/ 8e 8g#	.	.	.	.
8rC	8B/J 8e 8g#	.	8b\	-ści	.
=104	=104	=104	=104	=104	=104
4BBB/ 4BB	8ra	.	4.cc#X^\	słod-	.
.	8A/L 8d#X 8f#	.	.	.	.
8rC	8A/J 8d# 8f#	.	.	.	.
4rC	8A/L 8d# 8f#	.	4b\	-kie	.
.	8A/ 8d# 8f#	.	.	.	.
8rC	8A/J 8d# 8f#	.	8a/	rzekł	.
=105	=105	=105	=105	=105	=105
8EE\L	(16ddd#X\LL	.	2.f##X/	sło-	.
.	16fff#\	.	.	.	.
8E\ 8G#X	16eee\	.	.	.	.
.	16bb\J)	.	.	.	.
8E\J 8G#	8gg#X\J	.	.	.	.
8GG#X\L	(16aa#X\LL	.	.	.	.
.	16ccc#X\	.	.	.	.
8E\ 8G#	16bb\	.	.	.	.
.	16gg#\J)	.	.	.	.
8E\J 8G#	8ee\J	.	.	.	.
=106	=106	=106	=106	=106	=106
8BB\L	(16ff##X\LL	.	4g#X/	-wo	.
.	16aa\	.	.	.	.
8E\ 8G#X	16gg#X\	.	.	.	.
.	16ee\J)	.	.	.	.
8E\J 8G#	8b\J	.	8r	.	.
8BB\L	(16a#X/LL	.	4r	.	.
.	16cc#X/	.	.	.	.
8E\ 8G#	16b/	.	.	.	.
.	16g/J)	.	.	.	.
8E\J 8G#	8e/J	.	8r	.	.
!!LO:LB:g=original	!	!	!	!	!
=107	=107	=107	=107	=107	=107
4.DD/	8ra	.	4.ee\	gdy	.
.	8G#X/L 8B 8e	.	.	.	.
.	8G#/J 8B 8e	.	.	.	.
4GG#X/	8ra	.	4ee\	mój	.
.	8G#/L 8B 8e	.	.	.	.
8BB/	8G#/J 8B 8e	.	8ee\	wy-	.
=108	=108	=108	=108	=108	=108
*	*tremolo	*	*	*	*
4E\	8G#/L 8B 8e	<	4.ee\	-bra-	.
.	8G#/ 8B 8e	.	.	.	.
8rC	8G#/ 8B 8e	.	.	.	.
4DD/	8G#/ 8B 8e	.	4ee\	-ny	.
.	8G#/ 8B 8e	.	.	.	.
8rC	8G#/J 8B 8e	[[	[8ee\	je-	.
=109	=109	=109	=109	=109	=109
4CC#X/	8ra	f	2.ee\_	-dy-	.
*	*Xtremolo	*	*	*	*
.	8A/L 8e	.	.	.	.
8rC	8A/J 8e	.	.	.	.
4C#X/	8ra	.	.	.	.
.	8A/L 8e	>	.	.	.
8rC	8A/J 8e	.	.	.	.
=110	=110	=110	=110	=110	=110
4Cn/	8ra	.	4.ee\]	.	.
.	8A#X/L 8e 8g	.	.	.	.
8rC	8A#/J 8e 8g	.	.	.	.
(4.CCn/ (4.Cn	8A#/L 8e 8g	.	4.a#X/	-ny	.
.	8A#/ 8e 8g	.	.	.	.
.	8A#/J 8e 8g	]	.	.	.
=111	=111	=111	=111	=111	=111
4BBB/) 4BB)	4B/ 4e 4g#X	p	(8b\L	mi-	.
.	.	.	8gg#X\	.	.
!	!	!	!LO:TX:a:i:t=espressivo	!	!
8rC	8ra	.	8dd#X\J)	.	.
4rC	4ra	.	(8ee\L	-ło-	.
.	.	.	8g#X\	.	.
8rC	8ra	.	8cc#X\J)	-ści	.
=112	=112	=112	=112	=112	=112
4BBB/ 4BB	4A/ 4d#X 4f#	.	(8cc#X\L	słod-	.
.	.	.	8b\	.	.
8rC	8ra	.	8a#X\J)	-kie	.
4rC	4ra	.	(>8an/L	rzekł	.
.	.	.	8c#X/	.	.
8rC	8ra	.	8d#X/J)	.	.
!!LO:LB:g=original	!	!	!	!	!
=113	=113	=113	=113	=113	=113
4EE/ 4E	8G#X/ 8B 8e	.	4.e/	sło-	.
!	!LO:TX:a:t=Cor.	!	!	!	!
.	8e/L	.	.	.	.
8rC	8e/J	<	.	.	.
.	.	.	(16qqg#X/L	.	.
.	.	.	16qqf#/J	.	.
4rC	8e/L	.	4e/)	-wo	.
.	8e/	.	.	.	.
8rC	8e/J	[[	8r	.	.
=114	=114	=114	=114	=114	=114
*	*tremolo	*	*	*	*
!	!LO:TREM:dots=6	!	!	!	!
2.rF	8e'/L	>	2.r	.	.
.	8e'/	.	.	.	.
.	8e'/	.	.	.	.
.	8e'/	.	.	.	.
.	8e'/	.	.	.	.
.	8e'/J	]]	.	.	.
=115	=115	=115	=115	=115	=115
*tremolo	*	*	*	*	*
8C/L	8G/L 8cn 8e	p	4.ee\	Dziś	.
8C/	8G/ 8c 8e	.	.	.	.
8C/	8G/ 8c 8e	.	.	.	.
8C/	8G/ 8c 8e	.	4dd\	ja-	.
8C/	8G/ 8c 8e	.	.	.	.
8C/J	8G/J 8c 8e	.	8cc\	-każ	.
=116	=116	=116	=116	=116	=116
8C/L	8A-X/L 8c 8fn	<	4.cc\	do-	.
8C/	8A-/ 8c 8f	.	.	.	.
8C/	8A-/ 8c 8f	.	.	.	.
8C/	8A-/ 8c 8f	.	4b-X\	-la	.
8C/	8A-/ 8c 8f	.	.	.	.
8C/J	8A-/J 8c 8f	[[	8a-X/	prze-	.
=117	=117	=117	=117	=117	=117
16C/LL	2.G/ [>2.c [2.e	>	2.g/	-klę-	.
16BB/	.	.	.	.	.
16C/	.	.	.	.	.
16BB/	.	.	.	.	.
16C/	.	.	.	.	.
16BB/J	.	.	.	.	.
16C/L	.	.	.	.	.
16BB/	.	.	.	.	.
16C/	.	.	.	.	.
16BB/	.	.	.	.	.
16C/	.	.	.	.	.
16BB/JJ	.	]]	.	.	.
=118	=118	=118	=118	=118	=118
*	*^	*	*	*	*
!	!	!	!LO:DY:a	!	!	!
!	!	!	!LO:HP:a	!	!	!
8C/L	2.c/] 2.e]	(16G\LL	fz >	4e/	-ta	.
.	.	16A-X\	.	.	.	.
8C/	.	16G\	.	.	.	.
.	.	16A-\	.	.	.	.
8C/	.	16G\	.	8r	.	.
.	.	16A-\J	.	.	.	.
8C/	.	16G\L	.	4r	.	.
.	.	16A-\	.	.	.	.
8C/	.	16G\	.	.	.	.
.	.	16A-\	.	.	.	.
8C/J	.	16G\	.	8r	.	.
.	.	16A-X\JJ)	]	.	.	.
*	*v	*v	*	*	*	*
=119	=119	=119	=119	=119	=119
8C/L	8G/L 8c 8e	.	4.ee\	Ja	.
8C/	8G/ 8c 8e	.	.	.	.
8C/	8G/ 8c 8e	.	.	.	.
8C/	8G/ 8c 8e	.	(4dd\	tę-	.
8C/	8G/ 8c 8e	.	.	.	.
8C/J	8G/J 8c 8e	.	8cc\)	-sknę	.
=120	=120	=120	=120	=120	=120
8C/L	8A-X/L 8c 8fn	.	4.cc\	w ob-	.
8C/	8A-/ 8c 8f	.	.	.	.
8C/	8A-/ 8c 8f	.	.	.	.
8C/	8A-/ 8c 8f	.	4b-X\	-céj	.
8C/	8A-/ 8c 8f	.	.	.	.
8C/J	8A-/J 8c 8f	.	8a-X/	mi	.
!!LO:LB:g=original	!	!	!	!	!
=121	=121	=121	=121	=121	=121
(16C/LL	2.G/ [>2.c [>2.e	.	2.g/	stro-	.
16BB/	.	.	.	.	.
16C/	.	.	.	.	.
16BB/	.	.	.	.	.
16C/	.	.	.	.	.
16BB/	.	.	.	.	.
16C/	.	.	.	.	.
16BB/	.	.	.	.	.
16C/	.	.	.	.	.
16BB/	.	.	.	.	.
16C/	.	.	.	.	.
16BB/JJ)	.	.	.	.	.
=122	=122	=122	=122	=122	=122
*	*^	*	*	*	*
!	!	!	!LO:DY:a	!	!	!
8C/L	2.c/] 2.e]	(16G\LL	fz	4e/	-nie	.
!	!	!	!LO:HP:a	!	!	!
.	.	16A-X\	>	.	.	.
8C/	.	16G\	.	.	.	.
.	.	16A-\	.	.	.	.
8C/	.	16G\	.	8r	.	.
.	.	16A-\	.	.	.	.
8C/	.	16G\	.	4r	.	.
.	.	16A-\	.	.	.	.
8C/	.	16G\	.	.	.	.
.	.	16A-\	.	.	.	.
8C/J	.	16G\	.	8e/	A	.
.	.	16A-X\JJ)	]	.	.	.
*	*v	*v	*	*	*	*
=123	=123	=123	=123	=123	=123
!	!LO:TX:b:t=accellerando e sempre più accellerando e cres-al-:dur=4h12q:ext=cd:problem:text with extention lines 	!	!	!	!
2.CC/ 2.C	32c/LLL 32e	.	4.e/	sro-	.
.	32G/	.	.	.	.
.	32c/ 32e	.	.	.	.
.	32G/	.	.	.	.
.	32c/ 32e	.	.	.	.
.	32G/	.	.	.	.
.	32c/ 32e	.	.	.	.
.	32G/	.	.	.	.
.	32c/ 32e	.	.	.	.
.	32G/	.	.	.	.
.	32c/ 32e	.	.	.	.
.	32G/	.	.	.	.
.	32c/ 32e	.	4.e/	-gi	.
.	32G/	.	.	.	.
.	32c/ 32e	.	.	.	.
.	32G/	.	.	.	.
.	32c/ 32e	.	.	.	.
.	32G/	.	.	.	.
.	32c/ 32e	.	.	.	.
.	32G/	.	.	.	.
.	32c/ 32e	.	.	.	.
.	32G/	.	.	.	.
.	32c/ 32e	.	.	.	.
.	32G</JJJ	.	.	.	.
=124	=124	=124	=124	=124	=124
4.BBB/ 4.BB	32B/LLL 32e	.	4.e/	zbó-	.
.	32G/	.	.	.	.
.	32B/ 32e	.	.	.	.
.	32G/	.	.	.	.
.	32B/ 32e	.	.	.	.
.	32G/	.	.	.	.
.	32B/ 32e	.	.	.	.
.	32G/	.	.	.	.
.	32B/ 32e	.	.	.	.
.	32G/	.	.	.	.
.	32B/ 32e	.	.	.	.
.	32G</JJJ	.	.	.	.
4.BBB-X/ 4.BB-X	32c/LLL 32e	.	4e/	-jca	.
.	32G/	.	.	.	.
.	32c/ 32e	.	.	.	.
.	32G/	.	.	.	.
.	32c/ 32e	.	.	.	.
.	32G/	.	.	.	.
.	32c/ 32e	.	.	.	.
.	32G/	.	.	.	.
.	32c/ 32e	.	8e/	tam	.
.	32G/	.	.	.	.
.	32c/ 32e	.	.	.	.
.	32G</JJJ	.	.	.	.
=125	=125	=125	=125	=125	=125
[2.AAA/ [2.AA	32c#X/LLL 32e	.	2.g/	w pę-	.
.	32G/	<	.	.	.
.	32c#/ 32e	.	.	.	.
.	32G/	.	.	.	.
.	32c#/ 32e	.	.	.	.
.	32G/	.	.	.	.
.	32c#/ 32e	.	.	.	.
.	32G/	.	.	.	.
.	32c#/ 32e	.	.	.	.
.	32G/	.	.	.	.
.	32c#/ 32e	.	.	.	.
.	32G/	.	.	.	.
.	32c#/ 32e	.	.	.	.
.	32G/	.	.	.	.
.	32c#/ 32e	.	.	.	.
.	32G/	.	.	.	.
.	32c#/ 32e	.	.	.	.
.	32G/	.	.	.	.
.	32c#/ 32e	.	.	.	.
.	32G/	.	.	.	.
.	32c#/ 32e	.	.	.	.
.	32G/	.	.	.	.
.	32c#/ 32e	.	.	.	.
.	32G</JJJ	.	.	.	.
=126	=126	=126	=126	=126	=126
4.AAA/] 4.AA]	32c#X/LLL 32e	.	4e/	-ta	.
.	32G/	.	.	.	.
.	32c#/ 32e	.	.	.	.
.	32G/	.	.	.	.
.	32c#/ 32e	.	.	.	.
.	32G/	.	.	.	.
.	32c#/ 32e	.	.	.	.
.	32G/	.	.	.	.
.	32c#/ 32e	.	8r	.	.
.	32G/	.	.	.	.
.	32c#/ 32e	.	.	.	.
.	32G</JJJ	.	.	.	.
4.GGG#X/ 4.GG#X	32c#/LLL 32e	.	4r	.	.
.	32G#X/	.	.	.	.
.	32c#/ 32e	.	.	.	.
.	32G#/	.	.	.	.
.	32c#/ 32e	.	.	.	.
.	32G#/	.	.	.	.
.	32c#/ 32e	.	.	.	.
.	32G#/	.	.	.	.
.	32c#/ 32e	.	8ee\	lu-	.
.	32G#/	.	.	.	.
.	32c#/ 32e	.	.	.	.
.	32G#X</JJJ	.	.	.	.
=127	=127	=127	=127	=127	=127
4.GGGn/ 4.GGn	32c#X/LLL 32e	.	4.ee\	-be-	.
.	32A/	.	.	.	.
.	32c#/ 32e	.	.	.	.
.	32A/	.	.	.	.
.	32c#/ 32e	.	.	.	.
.	32A/	.	.	.	.
.	32c#/ 32e	.	.	.	.
.	32A/	.	.	.	.
.	32c#/ 32e	.	.	.	.
.	32A/	.	.	.	.
.	32c#/ 32e	.	.	.	.
.	32A/	.	.	.	.
4.GGn\ 4.Gn	32c#/ 32e	.	4.ee\	-go	.
.	32A/	.	.	.	.
.	32c#/ 32e	.	.	.	.
.	32A/	.	.	.	.
.	32c#/ 32e	.	.	.	.
.	32A/	.	.	.	.
.	32c#/ 32e	.	.	.	.
.	32A/	.	.	.	.
.	32c#/ 32e	.	.	.	.
.	32A/	.	.	.	.
.	32c#/ 32e	.	.	.	.
.	32A</JJJ	.	.	.	.
!!LO:LB:g=original	!	!	!	!	!
=128	=128	=128	=128	=128	=128
*	*tremolo	*	*	*	*
4.FF#X\ 4.F#X	32c#X/LLL 32e	.	4.ee\	za-	.
.	32A#X/	.	.	.	.
.	32c#/ 32e	.	.	.	.
.	32A#/	.	.	.	.
.	32c#/ 32e	.	.	.	.
.	32A#/	.	.	.	.
.	32c#/ 32e	.	.	.	.
.	32A#/	.	.	.	.
.	32c#/ 32e	.	.	.	.
.	32A#/	.	.	.	.
.	32c#/ 32e	.	.	.	.
.	32A#X</JJJ	.	.	.	.
4.GG-X\ 4.G-X	32d/LLL 32e-X	.	4ee\	-kuł	.
.	32B-/	.	.	.	.
.	32d/ 32e-	.	.	.	.
.	32B-/	.	.	.	.
.	32d/ 32e-	.	.	.	.
.	32B-/	.	.	.	.
.	32d/ 32e-	.	.	.	.
.	32B-/	.	.	.	.
.	32d/ 32e-	.	8ee\	już	.
.	32B-/	.	.	.	.
.	32d/ 32e-	.	.	.	.
.	32B-X</JJJ	.	.	.	.
=129	=129	=129	=129	=129	=129
2.FFn/ 2.Fn	32d-X/LLL 32fn	.	4.ffn\	dło-	.
.	32B-X/	.	.	.	.
.	32d-/ 32f	.	.	.	.
.	32B-/	.	.	.	.
.	32d-/ 32f	.	.	.	.
.	32B-/	.	.	.	.
.	32d-/ 32f	.	.	.	.
.	32B-/	.	.	.	.
.	32d-/ 32f	.	.	.	.
.	32B-/	.	.	.	.
.	32d-/ 32f	.	.	.	.
.	32B-</	.	.	.	.
.	32d-/ 32f	.	4fn/	-nie	.
.	32B-/	.	.	.	.
.	32d-/ 32f	.	.	.	.
.	32B-/	.	.	.	.
.	32d-/ 32f	.	.	.	.
.	32B-/	.	.	.	.
.	32d-/ 32f	.	.	.	.
.	32B-/	.	.	.	.
.	32d-/ 32f	.	8r	.	.
.	32B-/	.	.	.	.
.	32d-/ 32f	.	.	.	.
.	32B-X</JJJ	.	.	.	.
=130	=130	=130	=130	=130	=130
4.EE\ 4.E	32c#X/LLL 32g	.	2.r	.	.
.	32B-X/	.	.	.	.
.	32c#/ 32g	.	.	.	.
.	32B-/	.	.	.	.
.	32c#/ 32g	.	.	.	.
.	32B-/	.	.	.	.
.	32c#/ 32g	.	.	.	.
.	32B-/	.	.	.	.
.	32c#/ 32g	.	.	.	.
.	32B-/	.	.	.	.
.	32c#/ 32g	.	.	.	.
.	32B-</	.	.	.	.
4.EE-X\ 4.E-X	32c#/ 32g	.	.	.	.
.	32B-/	.	.	.	.
.	32c#/ 32g	.	.	.	.
.	32B-/	.	.	.	.
.	32c#/ 32g	.	.	.	.
.	32B-/	.	.	.	.
.	32c#/ 32g	.	.	.	.
.	32B-/	.	.	.	.
.	32c#/ 32g	.	.	.	.
.	32B-/	.	.	.	.
.	32c#/ 32g	.	.	.	.
.	32B-X/JJJ	.	.	.	.
=131	=131	=131	=131	=131	=131
2.DD/ 2.D	32dn/LLL 32g	.	4.gg\	za-	.
.	32B-X/	.	.	.	.
.	32d/ 32g	.	.	.	.
.	32B-/	.	.	.	.
.	32d/ 32g	.	.	.	.
.	32B-/	.	.	.	.
.	32d/ 32g	.	.	.	.
.	32B-/	.	.	.	.
.	32d/ 32g	.	.	.	.
.	32B-/	.	.	.	.
.	32d/ 32g	.	.	.	.
.	32B-</	.	.	.	.
.	32d/ 32g	.	4gg\	-kuł	.
.	32B-/	.	.	.	.
.	32d/ 32g	.	.	.	.
.	32B-/	.	.	.	.
.	32d/ 32g	.	.	.	.
.	32B-/	.	.	.	.
.	32d/ 32g	.	.	.	.
.	32B-/	.	.	.	.
.	32d/ 32g	.	8gg\	lu-	.
.	32B-/	.	.	.	.
.	32d/ 32g	.	.	.	.
.	32B-X</JJJ	.	.	.	.
=132	=132	=132	=132	=132	=132
4.CC#X\ 4.C#X	32en/LLL 32g	.	4.gg\	-be-	.
.	32A#X/	.	.	.	.
.	32e/ 32g	.	.	.	.
.	32A#/	.	.	.	.
.	32e/ 32g	.	.	.	.
.	32A#/	.	.	.	.
.	32e/ 32g	.	.	.	.
.	32A#/	.	.	.	.
.	32e/ 32g	.	.	.	.
.	32A#/	.	.	.	.
.	32e/ 32g	.	.	.	.
.	32A#</	.	.	.	.
4.CCn\ 4.Cn	32e/ 32g	.	4.ee\	-go	.
.	32A#/	.	.	.	.
.	32e/ 32g	.	.	.	.
.	32A#/	.	.	.	.
.	32e/ 32g	.	.	.	.
.	32A#/	.	.	.	.
.	32e/ 32g	.	.	.	.
.	32A#/	.	.	.	.
.	32e/ 32g	.	.	.	.
.	32A#/	.	.	.	.
.	32e/ 32g	.	.	.	.
.	32A#X</JJJ	[[	.	.	.
=133	=133	=133	=133	=133	=133
4BBB/ 4BB	4B/ 4e 4g	ff	[2.bb\	w pę-	.
8rC	8ra	.	.	.	.
4rC	4ra	.	.	.	.
8rC	8ra	.	.	.	.
=134	=134	=134	=134	=134	=134
4BBB/ 4BB	4b\ 4dd#X 4ff# 4bb	sf	2.bb\]	.	.
8rC	8ra	.	.	.	.
4rC	4ra	.	.	.	.
8rC	8ra	.	.	.	.
!!LO:PB:g=original	!	!	!	!	!
=135||	=135||	=135||	=135||	=135||	=135||
*M3/4	*M3/4	*	*M3/4	*	*
*	*Xtuplet	*	*	*	*
!	!LO:TX:a:B:t=Allegro vivace.	!	!LO:TX:a:B:t=Allegro vivace.	!	!
4E\ 4G	12e/L	fp	4ee\	-ta	.
.	12B/	.	.	.	.
.	12c#X/J	.	.	.	.
4rC	12d/L	.	4r	.	.
.	12d#X/	.	.	.	.
.	12e/J	.	.	.	.
*	*Xtremolo	*	*	*	*
4BB\ 4D#X 4A	12f#/L	pp	4r	.	.
.	12g/	.	.	.	.
.	12f#/J	.	.	.	.
=136	=136	=136	=136	=136	=136
4E\ 4G	12e/L	.	2.r	.	.
.	12B/	.	.	.	.
.	12c#X/J	.	.	.	.
4rC	12d/L	.	.	.	.
.	12d#X/	.	.	.	.
.	12e/J	.	.	.	.
4BB\ 4D#X 4A	12f#/L	.	.	.	.
.	12g/	.	.	.	.
.	12f#/J	.	.	.	.
=137	=137	=137	=137	=137	=137
4E\ 4G	12e/L	.	4b\	Już	.
.	12B/	.	.	.	.
.	12c#X/J	.	.	.	.
4rC	12d/L	.	4b\	ma-	.
.	12d#X/	.	.	.	.
.	12e/J	.	.	.	.
4BB\ 4D#X 4A	12f#/L	.	4b\	-ją	.
.	12g/	.	.	.	.
.	12f#/J	.	.	.	.
=138	=138	=138	=138	=138	=138
4E\ 4G	12e/L	.	4b\	sto-	.
.	12d#X/	.	.	.	.
.	12e/J	.	.	.	.
4rC	12f#/L	.	4b\	-czyć	.
.	12e/	.	.	.	.
.	12f#/J	.	.	.	.
4E\ 4B 4d	12g#X/L	.	4b\	bój	.
.	12f#/	.	.	.	.
.	12g#/J	.	.	.	.
!!LO:LB:g=original	!	!	!	!	!
=139	=139	=139	=139	=139	=139
4A\ 4c	12a/L	.	4b\	krwa-	.
.	12e/	.	.	.	.
.	12f#/J	.	.	.	.
4rC	12g/L	.	4a/	-wy	.
.	12g#X/	.	.	.	.
.	12a/J	.	.	.	.
4E\ 4B 4d	12b\L	.	4r	.	.
.	12cc\	.	.	.	.
.	12b\J	.	.	.	.
=140	=140	=140	=140	=140	=140
4A\ 4c	12a/L	.	2.r	.	.
.	12e/	.	.	.	.
.	12f#/J	.	.	.	.
4rC	12g/L	.	.	.	.
.	12g#X/	.	.	.	.
.	12a/J	.	.	.	.
4E\ 4B 4d	12b\L	.	.	.	.
.	12cc\	.	.	.	.
.	12b\J	.	.	.	.
=141	=141	=141	=141	=141	=141
4A\ 4c	12a/L	.	4ee\	Oj-	.
.	12e/	.	.	.	.
.	12f#/J	.	.	.	.
4rC	12g/L	.	4ee\	-ciec	.
.	12g#X/	.	.	.	.
.	12a/J	.	.	.	.
4E\ 4B 4d	12b\L	.	4ee\	na	.
.	12cc\	.	.	.	.
.	12b\J	.	.	.	.
=142	=142	=142	=142	=142	=142
4A\ 4c	12a/L	.	4ee\	cze-	.
.	12g#X/	.	.	.	.
.	12a/J	.	.	.	.
4rC	12cc/L	.	4ee\	-le	.
.	12b/	.	.	.	.
.	12a/J	.	.	.	.
*Xtuplet	*	*	*	*	*
!LO:TUP:b:problem:klamra łukowa	!LO:TUP:b:problem:klamra łukowa	!	!	!	!
12c\L	12cc/L	.	4ee-X\	wy-	.
12A\	12a/	.	.	.	.
12Gn\J	12gn/J	.	.	.	.
=143	=143	=143	=143	=143	=143
!	!LO:TX:b:t=cres_:dur=9e:ext=ud:problem:text with extention lines 	!	!	!	!
(12F#\L	12f#/L	<	4ee-X\	-pły-	.
12G\	(12g/	.	.	.	.
12A\J	12a/J	.	.	.	.
12G\L	12g/L	.	4dd\	-nął	.
12F#\	12f#/	.	.	.	.
12E\J	12e/J	.	.	.	.
*Xtremolo	*	*	*	*	*
12D\L	12d/L	.	4r	.	.
12C#X\	12c#X/	.	.	.	.
12D\J)	12d/J)	[[	.	.	.
!!LO:LB:g=original	!	!	!	!	!
=144	=144	=144	=144	=144	=144
(<12D#X\L	(12d#X/L	.	4r	.	.
12E\	12e/	.	.	.	.
12Dn\J	12dn/J	.	.	.	.
12Cn/L	12cn/L	.	8dd\	Drża-	.
12BB/	12B/	.	.	.	.
.	.	.	8dd\	-łam	.
12AA/J	12A/J	.	.	.	.
12GG#X/L	12G#X/L	.	8dd\	ca-	.
12AA/	12A/	.	.	.	.
.	.	.	8dd\	-ła	.
12BB/J)	12B/J)	.	.	.	.
=145	=145	=145	=145	=145	=145
12C/L	12c/L	.	2dd\	by	.
12BB/	12B/	.	.	.	.
12AA/J	12A/J	.	.	.	.
12E\L	12e/L	.	.	.	.
12D\	12d/	.	.	.	.
12C\J	12c/J	.	.	.	.
12BB/L	12B/L	.	4dd\	nie	.
12AA/	12A/	.	.	.	.
12GG/J	12G/J	.	.	.	.
=146	=146	=146	=146	=146	=146
12FF#X\L	12F#X</L	.	2.dd\	zgi-	.
12GG\	12G</	.	.	.	.
12AA\J	12A</J	.	.	.	.
12GG\L	12G</L	.	.	.	.
12FF#\	12F#</	.	.	.	.
12EE\J	12E</J	.	.	.	.
12DD\L	12D</L	.	.	.	.
12EE\	12E</	.	.	.	.
12FF#\J	12F#</J	.	.	.	.
=147	=147	=147	=147	=147	=147
4GG\	4G</	f	4g/	-nął	.
(32D^/LLL	(32d^>/LLL	.	4r	.	.
32C/JJ	32c/JJ	.	.	.	.
8.BB/J)	8.B/J)	.	.	.	.
(32BB^/LLL	(32B^>/LLL	.	4r	.	.
32AA/JJ	32A/JJ	.	.	.	.
8.GG/J)	8.G/J)	.	.	.	.
=148	=148	=148	=148	=148	=148
!	!	!	!	!	!LO:DY:a
12FF#/L	4ra	.	8dd\	Hu-	f
12GG/	.	.	.	.	.
.	.	.	8dd\	-kiem	.
12AA/J	.	.	.	.	.
12GG/L	4ra	.	8dd\	dział	.
12FF#/	.	.	.	.	.
.	.	.	8dd\	za-	.
12EE/J	.	.	.	.	.
4DD/ 4D	4dd\ 4ff# 4aa 4ddd	sf	8dd\	-grzmia-	.
.	.	.	8dd\	-ło	.
!!LO:LB:g=original	!	!	!	!	!
=149	=149	=149	=149	=149	=149
4GG/ 4G	4dd\ 4gg 4bb	sf	4b\	mo-	.
(32D^/LLL	(32d^>/LLL	.	4g/	-rze	.
32C/JJ	32c/JJ	.	.	.	.
8.BB/J)	8.B/J)	.	.	.	.
(32BB^/LLL	(32B^>/LLL	.	4r	.	.
32AA/JJ	32A/JJ	.	.	.	.
8.GG/J)	8.G/J)	.	.	.	.
=150	=150	=150	=150	=150	=150
12FF#/L	4ra	.	8dd\	pró-	.
12GG/	.	.	.	.	.
.	.	.	8dd\	-żno	.
12AA/J	.	.	.	.	.
12GG/L	4ra	.	8dd\	się	.
12FF#/	.	.	.	.	.
.	.	.	8dd\	wa-	.
12EE/J	.	.	.	.	.
4DD/ 4D	4dd\ 4ff# 4aa 4ddd	sf	8dd\	-le-	.
.	.	.	8dd\	-cznie	.
=151	=151	=151	=151	=151	=151
4GG/ 4G	4dd\ 4gg 4bb	.	4b\	bro-	.
(32D^/LLL	(32d^>/LLL	.	4g/	-ni	.
32C/JJ	32c/JJ	.	.	.	.
8.BB/J)	8.B/J)	.	.	.	.
(32BB^/LLL	(32B^>/LLL	.	4r	.	.
32AA/JJ	32A/JJ	.	.	.	.
8.GG/J)	8.G/J)	.	.	.	.
=152	=152	=152	=152	=152	=152
12GG#X/L	4ra	.	8ee\	O-	.
12AA/	.	.	.	.	.
.	.	.	8ee\	-kręt	.
12BB/J	.	.	.	.	.
12AA/L	4ra	.	8ee\	zbroj-	.
12GG#/	.	.	.	.	.
.	.	.	8ee\	-ny	.
12FF#/J	.	.	.	.	.
4EE/ 4E	4ee\ 4gg#X 4bb 4eee	sf	8ee\	za	.
.	.	.	8ee\	nim	.
!!LO:LB:g=original	!	!	!	!	!
=153	=153	=153	=153	=153	=153
4AA\ 4A	4ee\ 4aa 4ccc	sf	4cc\	go-	.
(32E^/LLL	(32e^>/LLL	.	4a/	-ni	.
32D/JJ	32d/JJ	.	.	.	.
8.C/J)	8.c/J)	.	.	.	.
(32C^/LLL	(32c^>/LLL	.	4r	.	.
32BB/JJ	32B/JJ	.	.	.	.
8.AA/J)	8.A/J)	.	.	.	.
=154	=154	=154	=154	=154	=154
12GG#X/L	4ra	.	8ee\	Już	.
12AA/	.	.	.	.	.
.	.	.	8ee\	go	.
12BB/J	.	.	.	.	.
12AA/L	4ra	.	8ee\	chwy-	.
12GG#/	.	.	.	.	.
.	.	.	8ee\	-ta	.
12FF#X/J	.	.	.	.	.
4EE/ 4E	4ee\ 4gg#X 4bb 4eee	sf	8ee\	już	.
.	.	.	8ee\	za-	.
=155	=155	=155	=155	=155	=155
4AA\ 4A	4ee\ 4aa 4ccc	sf	4cc\	-cha-	.
(32E^/LLL	(32e^>/LLL	.	4a/	-czy	.
32D/JJ	32d/JJ	.	.	.	.
8.C/J)	8.c/J)	.	.	.	.
(32C^/LLL	(32c^>/LLL	.	8cc\	Już	.
32BB/JJ	32B/JJ	.	.	.	.
8.AA/J)	8.A/J)	.	.	.	.
.	.	.	8cc\	go	.
=156	=156	=156	=156	=156	=156
(32Fn^\LLL	(32f^/LLL	.	4dd\	chwy-	.
32E\JJ	32e/JJ	.	.	.	.
8.D\J)	8.d/J)	.	.	.	.
(32D^/LLL	(32d^>/LLL	.	4g/	-ta	.
32C/JJ	32c/JJ	.	.	.	.
8.BB/J)	8.B/J)	.	.	.	.
(32BB^/LLL	(32B^>/LLL	.	8gg\	już	.
32AA/JJ	32A/JJ	.	.	.	.
8.GG/J)	8.G/J)	.	.	.	.
.	.	.	8gg\	za-	.
!!LO:PB:g=original	!	!	!	!	!
=157	=157	=157	=157	=157	=157
(32G^\LLL	(32g^>/LLL	.	4ee\	-ha-	.
32Fn\JJ	32fn/JJ	.	.	.	.
8.E\J)	8.e/J)	.	.	.	.
(32E^\LLL	(32e^>/LLL	.	4cc\	-czy	.
32D\JJ	32d/JJ	.	.	.	.
8.C\J)	8.c/J)	.	.	.	.
(32A^\LLL	(32a^>/LLL	.	8ffn\	już	.
32G\JJ	32g/JJ	.	.	.	.
8.F\J)	8.f/J)	.	.	.	.
.	.	.	8ff\	się	.
=158	=158	=158	=158	=158	=158
(32Fn^\LLL	(32fn^>/LLL	.	4ff#\	sta-	.
32E\JJ	32e/JJ	.	.	.	.
8.D\J)	8.d/J)	.	.	.	.
(32B^\LLL	(32b^>/LLL	.	4ee\	-ło	.
32A\JJ	32a/JJ	.	.	.	.
8.G#X\J)	8.g#X/J)	.	.	.	.
(32G#^\LLL	(32g#^>/LLL	.	8ee\	o	.
32F#X\JJ	32f#X/JJ	.	.	.	.
8.E\J)	8.e/J)	.	.	.	.
.	.	.	8ee\	roz-	.
=159	=159	=159	=159	=159	=159
!	!	!	!	!	!LO:DY:a
*	*	*	*	*	*
[2.AAA/ [2.AA	(12aa\L 12ccc	.	[2.aa\	-pa-	ff
.	12ee\)	.	.	.	.
.	12ee'\J	.	.	.	.
.	(12ee\L 12aa	.	.	.	.
.	12cc\)	.	.	.	.
.	12cc'\J	.	.	.	.
!	!LO:TX:b:i:t=simile	!	!	!	!
.	(12cc\L 12ee	.	.	.	.
.	12a\)	.	.	.	.
.	12a'\J	.	.	.	.
=160	=160	=160	=160	=160	=160
2.AAA/] 2.AA]	(12a/L 12cc	.	2.aa\]	.	.
.	12e/)	.	.	.	.
.	12e'/J	.	.	.	.
.	(12e/L 12a	.	.	.	.
.	12c/)	.	.	.	.
.	12c'/J	.	.	.	.
.	(12c/L 12e	.	.	.	.
.	12A/)	.	.	.	.
.	12A'/J	.	.	.	.
=161	=161	=161	=161	=161	=161
[2.AAA/ [2.AA	(12ee\L 12aa	.	4a/	-czy!	.
.	12cc\)	.	.	.	.
.	12cc'\J	.	.	.	.
.	(12cc\L 12ee	.	4r	.	.
.	12a\)	.	.	.	.
.	12a'\J	.	.	.	.
.	(12a/L 12cc	.	4r	.	.
.	12e/)	.	.	.	.
.	12e'/J	.	.	.	.
!!LO:LB:g=original	!	!	!	!	!
=162	=162	=162	=162	=162	=162
!	!	!LO:HP:b:t=dim	!	!	!
2.AAA/_ 2.AA_<	(12e/L 12a	>	2.r	.	.
.	12c/)	.	.	.	.
.	12c'/J	.	.	.	.
.	(12c/L 12e	.	.	.	.
.	12A</)	.	.	.	.
.	12A<'</J	.	.	.	.
.	(12c/L	.	.	.	.
.	12E</)	.	.	.	.
.	12E<'</J	.	.	.	.
=163	=163	=163	=163	=163	=163
*	*tremolo	*	*	*	*
4AAA\] 4AA]	16A</LL 16c	.	4r	.	.
.	16E/	.	.	.	.
.	16A/ 16c	.	.	.	.
.	16E/	.	.	.	.
4AA^\	16A/ 16c	.	4r	.	.
.	16E/	.	.	.	.
.	16A/ 16c	.	.	.	.
.	16E/	.	.	.	.
4rC	16A/ 16c	.	8cc\	Bój	.
.	16E/	.	.	.	.
.	16A/ 16c	.	8cc\	za-	.
.	16E</JJ	.	.	.	.
=164	=164	=164	=164	=164	=164
!	!LO:TX:b:t=cres-:dur=12q:ext=cd:problem:text with extention lines 	!	!	!	!
4rFF	16A</LL 16c#X	<	8cc#X\	-wzię-	.
.	16E/	.	.	.	.
.	16A/ 16c#	.	8cc#\	-ty	.
.	16E/	.	.	.	.
4GGG^\ 4GG	16A/ 16c#	.	4r	.	.
.	16E/	.	.	.	.
.	16A/ 16c#	.	.	.	.
.	16E/	.	.	.	.
4rFF	16A/ 16c#	.	8cc#\	szczęk	.
.	16E/	.	.	.	.
.	16A/ 16c#	.	8cc#\	o-	.
.	16E</JJ	.	.	.	.
=165	=165	=165	=165	=165	=165
4rFF	16A</LL 16d	.	8dd\	-rę-	.
.	16D/	.	.	.	.
.	16A/ 16d	.	8dd\	-ża	.
.	16D/	.	.	.	.
4FFF#X^\ 4FF#X	16A/ 16d	.	4r	.	.
.	16D/	.	.	.	.
.	16A/ 16d	.	.	.	.
.	16D/	.	.	.	.
4rFF	16A/ 16d	.	8dd\	za-	.
.	16D/	.	.	.	.
.	16A/ 16d	.	8dd\	-pał	.
.	16D</JJ	.	.	.	.
=166	=166	=166	=166	=166	=166
4rFF	16c/LL 16d#X	.	8dd#X\	świę-	.
.	16A/	.	.	.	.
.	16c/ 16d#	.	8dd#\	-ty	.
.	16A/	.	.	.	.
4FFn\ 4Fn	16c/ 16d#	.	4r	.	.
.	16A/	.	.	.	.
.	16c/ 16d#	.	.	.	.
.	16A/	.	.	.	.
4rFF	16c/ 16d#	.	8dd#\	nie	.
.	16A/	.	.	.	.
.	16c/ 16d#	.	8dd#\	zwy-	.
.	16A</JJ	.	.	.	.
!!LO:LB:g=original	!	!	!	!	!	!	!
=167	=167	=167	=167	=167	=167
4rAA	16c/LL 16e	.	8ee\	-cię-	.
.	16A/	.	.	.	.
.	16c/ 16e	.	8ee\	-ża	.
.	16A/	.	.	.	.
4EE^\ 4E	16c/ 16e	.	4r	.	.
.	16A/	.	.	.	.
.	16c/ 16e	.	.	.	.
.	16A/	.	.	.	.
4rAA	16c/ 16e	.	8ee\	nie	.
.	16A/	.	.	.	.
.	16c/ 16e	.	8ee\	zwy-	.
.	16A</JJ	[[	.	.	.
=168	=168	=168	=168	=168	=168
4DD#X/ 4D#X	4A/ 4c 4f#X	sf	2ff#X;\	-cię-	.
4rC	4ra	.	.	.	.
4rC;	4ra;	.	4a;/	-ża	.
=169||	=169||	=169||	=169||	=169||	=169||
*	*^	*	*	*	*
!	!LO:TX:b:t=Fag	!	!	!LO:TX:a:B:t=Andante con moto	!	!
4rC	4rff	2.f#\	p	2.r	.	.
!LO:TX:b:t=Cello	!	!	!	!	!	!
4rC	4rff	.	.	.	.	.
!	!LO:TX:b:i:t=trem.	!	!	!	!	!
!	!LO:TX:a:i:t=trem.	!	!	!	!	!
!	!LO:TX:a:t=Vni.	!	!	!	!	!
*tremolo	*	*	*	*	*	*
32D#X\LLL 32c\	32f#/LLL 32a/	.	pp	.	.	.
32D#X\ 32c\	32f#/ 32a/	.	.	.	.	.
32D#X\ 32c\	32f#/ 32a/	.	.	.	.	.
32D#X\ 32c\	32f#/ 32a/	.	.	.	.	.
32D#X\ 32c\	32f#/ 32a/	.	.	.	.	.
32D#X\ 32c\	32f#/ 32a/	.	.	.	.	.
32D#X\ 32c\	32f#/ 32a/	.	.	.	.	.
32D#X\JJJ 32c\	32f#/JJJ 32a/	.	.	.	.	.
=170	=170	=170	=170	=170	=170	=170
4D#X\ 4c	4fn/ 4a	2.f^\	.	2.r	.	.
4rC	4rdd	.	.	.	.	.
32D#\LLL 32c\	32f#y/LLL 32a/	.	.	.	.	.
32D#\ 32c\	32f#/ 32a/	.	.	.	.	.
32D#\ 32c\	32f#/ 32a/	.	.	.	.	.
32D#\ 32c\	32f#/ 32a/	.	.	.	.	.
32D#\ 32c\	32f#/ 32a/	.	.	.	.	.
32D#\ 32c\	32f#/ 32a/	.	.	.	.	.
32D#\ 32c\	32f#/ 32a/	.	.	.	.	.
32D#\JJJ 32c\	32f#/JJJ 32a/	.	.	.	.	.
=171	=171	=171	=171	=171	=171	=171
4E\ 4c	4e/ 4a	[2.e\	.	2.r	.	.
4rC	4rdd	.	.	.	.	.
32E\LLL 32c\	32e/LLL 32a/	.	.	.	.	.
32E\ 32c\	32e/ 32a/	.	.	.	.	.
32E\ 32c\	32e/ 32a/	.	.	.	.	.
32E\ 32c\	32e/ 32a/	.	.	.	.	.
32E\ 32c\	32e/ 32a/	.	.	.	.	.
32E\ 32c\	32e/ 32a/	.	.	.	.	.
32E\ 32c\	32e/ 32a/	.	.	.	.	.
32E\JJJ 32c\	32e/JJJ 32a/	.	.	.	.	.
=172	=172	=172	=172	=172	=172	=172
4E\ 4B	4e/ 4g#X	2.e\]	.	2.r	.	.
4rC	4rdd	.	.	.	.	.
32E\LLL 32B\	32d/LLL 32g#/	.	.	.	.	.
32E\ 32B\	32d/ 32g#/	.	.	.	.	.
32E\ 32B\	32d/ 32g#/	.	.	.	.	.
32E\ 32B\	32d/ 32g#/	.	.	.	.	.
32E\ 32B\	32d/ 32g#/	.	.	.	.	.
32E\ 32B\	32d/ 32g#/	.	.	.	.	.
32E\ 32B\	32d/ 32g#/	.	.	.	.	.
32E\JJJ 32B\	32d/JJJ 32g#/	.	.	.	.	.
*	*v	*v	*	*	*	*
=173	=173	=173	=173	=173	=173
*^	*	*	*	*	*
(2.E/	4E\ 4B-X	4c#X/ 4gn	.	2.r	.	.
.	4rAA	4r	.	.	.	.
.	32E\LLL 32B-\	32c#/LLL 32g/	.	.	.	.
.	32E\ 32B-\	32c#/ 32g/	.	.	.	.
.	32E\ 32B-\	32c#/ 32g/	.	.	.	.
.	32E\ 32B-\	32c#/ 32g/	.	.	.	.
.	32E\ 32B-\	32c#/ 32g/	.	.	.	.
.	32E\ 32B-\	32c#/ 32g/	.	.	.	.
.	32E\ 32B-\	32c#/ 32g/	.	.	.	.
.	32E\JJJ 32B-\	32c#/JJJ 32g/	.	.	.	.
!!LO:LB:g=original	!	!	!	!	!	!	!	!
=174	=174	=174	=174	=174	=174	=174
2.E-X/)	4E-\ 4B-X	4c#X/ 4g	.	4r	.	.
!	!LO:TX:a:t=Clar.	!	!	!	!	!
.	4rAA	4r	.	4r	.	.
.	32E-\LLL 32B-\	32c#/LLL 32g/	.	4e-X/	Wróg	.
.	32E-\ 32B-\	32c#/ 32g/	.	.	.	.
.	32E-\ 32B-\	32c#/ 32g/	.	.	.	.
.	32E-\ 32B-\	32c#/ 32g/	.	.	.	.
.	32E-\ 32B-\	32c#/ 32g/	.	.	.	.
.	32E-\ 32B-\	32c#/ 32g/	.	.	.	.
.	32E-\ 32B-\	32c#/ 32g/	.	.	.	.
.	32E-\JJJ 32B-\	32c#/JJJ 32g/	.	.	.	.
=175	=175	=175	=175	=175	=175	=175
[2.D/	4D\ 4B-X	4d/ 4g	.	4d/	za-	.
.	4rAA	4r	.	4d/	-dał	.
.	32D\LLL 32B-\	32d/LLL 32g/	.	4d/	śmier-	.
.	32D\ 32B-\	32d/ 32g/	.	.	.	.
.	32D\ 32B-\	32d/ 32g/	.	.	.	.
.	32D\ 32B-\	32d/ 32g/	.	.	.	.
.	32D\ 32B-\	32d/ 32g/	.	.	.	.
.	32D\ 32B-\	32d/ 32g/	.	.	.	.
.	32D\ 32B-\	32d/ 32g/	.	.	.	.
.	32D\JJJ 32B-\	32d/JJJ 32g/	.	.	.	.
=176	=176	=176	=176	=176	=176	=176
2.D/]	4D\ 4A	4cn/ 4f#X	.	2e-X^>/	-tel-	.
.	4rAA	4r	.	.	.	.
.	32D\LLL 32A\	32c/LLL 32f#/	.	4d/	-ny	.
.	32D\ 32A\	32c/ 32f#/	.	.	.	.
.	32D\ 32A\	32c/ 32f#/	.	.	.	.
.	32D\ 32A\	32c/ 32f#/	.	.	.	.
.	32D\ 32A\	32c/ 32f#/	.	.	.	.
.	32D\ 32A\	32c/ 32f#/	.	.	.	.
.	32D\ 32A\	32c/ 32f#/	.	.	.	.
.	32D\JJJ 32A\	32c/JJJ 32f#/	.	.	.	.
*v	*v	*	*	*	*	*
=177	=177	=177	=177	=177	=177
4GG/ 4D 4G	4Bn^/ 4d 4g	.	2d;/	cios	.
4rC	4ra	.	.	.	.
4rC;	4ra;	.	8r	.	.
!	!	!	!	!	!LO:DY:a
.	.	.	8d/	i	pp
=178	=178	=178	=178	=178	=178
2.rF	2.r	.	4a/	ci-	.
.	.	.	4g/	-chość	.
.	.	.	8r;	.	.
.	.	.	8g/	i	.
=179	=179	=179	=179	=179	=179
!	!LO:TX:b:Bi:t=lunga pausa	!	!	!	!LO:DY:a
2.rF;	2.r;	.	4cc\	ci-	ppp
.	.	.	4b\	-chość	.
.	.	.	4r;	.	.
=180	=180	=180	=180	=180	=180
4AA/	4c#X:/ 4g: 4a:	ppp	2.r	.	.
4D\	4d:/ 4f#: 4a:	.	.	.	.
4rC;	4r;	.	.	.	.
!!LO:PB:g=original	!	!	!	!	!	!	!
=181	=181	=181	=181	=181	=181
!	!LO:TX:a:t=Clar.	!	!LO:TX:a:B:t=Moderato.	!	!
2.rF	([4d/	p	2.r	.	.
.	8.d/L]	.	.	.	.
.	16G/Jk	.	.	.	.
.	16f#/LL	.	.	.	.
.	16d/	.	.	.	.
.	16a/	.	.	.	.
.	16f#/JJ)	.	.	.	.
=182	=182	=182	=182	=182	=182
*	*ped	*	*	*	*
!	!LO:TX:a:t=Flau.	!	!	!	!
2.rF	(4dd\	.	2.r	.	.
.	8.dd\L	<	.	.	.
.	16a\Jk	.	.	.	.
.	16ff#\LL	.	.	.	.
.	16dd\	.	.	.	.
.	16aa\)	.	.	.	.
.	16ff#\JJ	.	.	.	.
=183	=183	=183	=183	=183	=183
!	!	!	!LO:N:vis=1	!	!
2.rF	8ddd'\L	.	2.r	.	.
.	8fff#'\J	[[	.	.	.
.	2aaa\	.	.	.	.
*clefG2	*8va	*	*	*	*
=184	=184	=184	=184	=184	=184
!	!LO:TX:b:i:t=rallen	!	!LO:N:vis=1	!	!
2.ff#tt\	2.aaaTT\	f >	2.r	.	.
16qqee#X/L	16qqggg#X/L	.	.	.	.
16qqff#/J	16qqaaa/J	]]	.	.	.
=185	=185	=185	=185	=185	=185
2dd;\ 2aa	2fff#^<;\ 2dddd	.	4r;	.	.
!	!	!	!LO:TX:a:t=+	!	!
.	.	.	4r	.	.
*	*X8va	*	*	*	*
*	*Xped	*	*	*	*
4r	4r	.	8a/	Wtém	.
.	.	.	8a/	za-	.
=186	=186	=186	=186	=186	=186
2.rdd	2.rdd	.	4.dd\	-bły-	.
.	.	.	8a/	-sła	.
.	.	.	8ff#\	zo-	.
.	.	.	8dd\	-rza	.
=187	=187	=187	=187	=187	=187
2.rdd;	2.rdd;	.	2aa;\	słoń-	.
*	*	*	*rscale:4	*	*
.	.	.	16%1ff#/L	.	.
.	.	.	16%1dd/	.	.
.	.	.	16%1a/	.	.
.	.	.	16%1f#/J	.	.
*	*	*	*rscale:auto	*	*
!!LO:LB:g=original	!	!	!	!	!	!	!
=188||	=188||	=188||	=188||	=188||	=188||
*clefF4	*	*	*	*	*
*M4/4	*M4/4	*	*M4/4	*	*
*met(c)	*met(c)	*	*met(c)	*	*
!	!	!	!LO:TX:a:B:t=Allegro vivo No 1.	!	!
32DD/LLL	2rcc	.	4d/	-ca	.
32D/	.	.	.	.	.
32DD/	.	.	.	.	.
32D/	.	.	.	.	.
32DD/	.	.	.	.	.
32D/	.	.	.	.	.
32DD/	.	.	.	.	.
32D/	.	.	.	.	.
32DD/	.	.	4r	.	.
32D/	.	.	.	.	.
32DD/	.	.	.	.	.
32D/	.	.	.	.	.
32DD/	.	.	.	.	.
32D/	.	.	.	.	.
32DD/	.	.	.	.	.
32D/JJJ	.	.	.	.	.
!	!LO:TX:a:t=Vno. Io.	!	!	!	!
32DD/LLL	8ra	.	2r	.	.
32D/	.	.	.	.	.
32DD/	.	.	.	.	.
32D/	.	.	.	.	.
32DD/	(16dd\LL	<	.	.	.
32D/	.	.	.	.	.
32DD/	16ee\JJ	.	.	.	.
32D/	.	.	.	.	.
32DD/	16ff#\LL	.	.	.	.
32D/	.	.	.	.	.
32DD/	16gg\	.	.	.	.
32D/	.	.	.	.	.
32DD/	16aa\	.	.	.	.
32D/	.	.	.	.	.
32DD/	16bb\JJ)	.	.	.	.
32D/JJJ	.	[[	.	.	.
=189	=189	=189	=189	=189	=189
[1D [1F# [1A	4ccc\	f	1r	.	.
.	(16gg#X\LL	.	.	.	.
.	16bb\	.	.	.	.
.	16aa\	.	.	.	.
.	16ff#\JJ)	.	.	.	.
.	4dd\	.	.	.	.
.	(16cc#X\LL	.	.	.	.
.	16ee\	.	.	.	.
.	16dd\	.	.	.	.
.	16ccn\JJ)	.	.	.	.
=190	=190	=190	=190	=190	=190
1D] 1F#] 1A]	4a/	.	1r	.	.
.	(16g#X/LL	>	.	.	.
.	16b/	.	.	.	.
.	16a/	.	.	.	.
.	16f#/JJ)	.	.	.	.
.	4d/	.	.	.	.
.	(16c#X/LL	.	.	.	.
.	16e/	.	.	.	.
.	16d/	.	.	.	.
.	16cn/JJ)	]]	.	.	.
=191	=191	=191	=191	=191	=191
32DD/LLL	[1A [1c	p	1r	.	.
32D/	.	.	.	.	.
32DD/	.	.	.	.	.
32D/	.	.	.	.	.
32DD/	.	.	.	.	.
32D/	.	.	.	.	.
32DD/	.	.	.	.	.
32D/	.	.	.	.	.
32DD/	.	.	.	.	.
32D/	.	.	.	.	.
32DD/	.	.	.	.	.
32D/	.	.	.	.	.
32DD/	.	.	.	.	.
32D/	.	.	.	.	.
32DD/	.	.	.	.	.
32D/JJJ	.	.	.	.	.
32DD#X/LLL	.	.	.	.	.
32D#X/	.	.	.	.	.
32DD#/	.	.	.	.	.
32D#/	.	.	.	.	.
32DD#/	.	.	.	.	.
32D#/	.	.	.	.	.
32DD#/	.	.	.	.	.
32D#/	.	.	.	.	.
32DD#/	.	.	.	.	.
32D#/	.	.	.	.	.
32DD#/	.	.	.	.	.
32D#/	.	.	.	.	.
32DD#/	.	.	.	.	.
32D#/	.	.	.	.	.
32DD#/	.	.	.	.	.
32D#X/JJJ	.	.	.	.	.
=192	=192	=192	=192	=192	=192
32EE/LLL	1A] 1c]	.	1r	.	.
32E/	.	.	.	.	.
32EE/	.	.	.	.	.
32E/	.	.	.	.	.
32EE/	.	.	.	.	.
32E/	.	.	.	.	.
32EE/	.	.	.	.	.
32E/	.	.	.	.	.
32EE/	.	.	.	.	.
32E/	.	.	.	.	.
32EE/	.	.	.	.	.
32E/	.	.	.	.	.
32EE/	.	.	.	.	.
32E/	.	.	.	.	.
32EE/	.	.	.	.	.
32E/JJJ	.	.	.	.	.
32FF#/LLL	.	.	.	.	.
32F#/	.	.	.	.	.
32FF#/	.	.	.	.	.
32F#/	.	.	.	.	.
32FF#/	.	.	.	.	.
32F#/	.	.	.	.	.
32FF#/	.	.	.	.	.
32F#/	.	.	.	.	.
32FF#/	.	.	.	.	.
32F#/	.	.	.	.	.
32FF#/	.	.	.	.	.
32F#/	.	.	.	.	.
32FF#/	.	.	.	.	.
32F#/	.	.	.	.	.
32FF#/	.	.	.	.	.
32F#/JJJ	.	.	.	.	.
=193||	=193||	=193||	=193||	=193||	=193||
*	*Xtremolo	*	*	*	*
!	!	!	!LO:TX:a:B:t=Allegro moderato	!	!
4GG\	4G</ 4B	.	1r	.	.
4rCC	16D<'</LL 16G< 16B<	.	.	.	.
.	16D<'</ 16G< 16B<	.	.	.	.
.	16D<'</ 16G< 16B<	.	.	.	.
.	16D<'</JJ 16G< 16B<	.	.	.	.
2rGG	4D</ 4G< 4B<	.	.	.	.
.	4D</ 4G< 4B<	.	.	.	.
=194	=194	=194	=194	=194	=194
4GGG/ 4GG	4rG<	.	1r	.	.
*	*tremolo	*	*	*	*
!	!LO:TX:b:i:t=simile	!	!	!	!
!	!LO:TREM:dots=4	!	!	!	!
4rFF	16D<'/LL 16G< 16B<	.	.	.	.
.	16D<'/ 16G< 16B<	.	.	.	.
.	16D<'/ 16G< 16B<	.	.	.	.
.	16D<'/JJ 16G< 16B<	.	.	.	.
2rGG	4D</ 4G< 4B<	.	.	.	.
.	4D</ 4G< 4B<	.	.	.	.
!!LO:LB:g=original	!	!	!	!	!	!	!
=195!|:	=195!|:	=195!|:	=195!|:	=195!|:	=195!|:
!	!	!	!LO:TX:a:B:t=Grazioso	!	!
4GG\	4rG<	.	4dd\	Ah!	.
*	*Xtremolo	*	*	*	*
4rCC	16D<'</LL 16G< 16B<	.	(16cc#X\LL	za-	.
.	16D<'</ 16G< 16B<	.	16ee\	.	.
.	16D<'</ 16G< 16B<	.	16dd\	.	.
.	16D<'</JJ 16G< 16B<	.	16b\JJ)	.	.
2rGG	4D</ 4G< 4B<	.	4g/	-bły-	.
.	4D</ 4G< 4B<	.	4b\	-sła	.
=196	=196	=196	=196	=196	=196
*^	*	*	*	*	*
4GG\	4rG<	2r	.	2d/	zo-	.
4rDD	16D<'</LL 16G< 16B<	.	.	.	.	.
.	16D<'</ 16G< 16B<	.	.	.	.	.
.	16D<'</ 16G< 16B<	.	.	.	.	.
.	16D<'</JJ 16G< 16B<	.	.	.	.	.
.	.	.	.	16qqf#/L	.	.
.	.	.	.	16qqe/J	.	.
4rDD	4D</ 4G< 4B<	4r	.	4d/	-rza	.
4ryy	4D</ 4G< 4B<	(8ee\L	<	(8e/L	za-	.
.	.	8ff#\J	.	8f#/J)	.	.
*v	*v	*	*	*	*	*
=197	=197	=197	=197	=197	=197
4GG/	8gg\L	.	(8g/L	-bły-	.
.	8aa\	.	8a/J)	.	.
4D\ 4G 4B	8bb\	.	(8b\L	-sła	.
.	8ccc\J	[	8cc\J)	.	.
4EE/ 4E	8ddd\L	>	(8dd\L	zo-	.
.	8ddd#X\	.	8dd#X\J)	.	.
4D\ 4G#X 4B	8eee\	.	(8ee\L	-rza	.
.	8bb\J)	]]	8b\J)	.	.
=198	=198	=198	=198	=198	=198
4AA/	(2ddd^\	.	(2dd\	słoń-	.
!LO:TREM:dots=4	!	!	!	!	!
16E'\LL 16G#X 16B	.	.	.	.	.
16E'\ 16G# 16B	.	.	.	.	.
16E'\ 16G# 16B	.	.	.	.	.
16E'\JJ 16G# 16B	.	.	.	.	.
4E\ 4A 4c	4ccc\)	.	4cc\)	-ca	.
4E\ 4A 4c	4ra	.	4r	.	.
=199	=199	=199	=199	=199	=199
4AA\	4ra	.	4ee\	na-	.
4rDD	16E<'>/LL 16A< 16c	.	(16dd#X\LL	-stał	.
.	16E<'>/ 16A< 16c	.	16ffn\	.	.
.	16E<'>/ 16A< 16c	.	16ee\	.	.
.	16E<'>/JJ 16A< 16c	.	16cc\JJ)	.	.
2rGG	4E</ 4A< 4c	.	4a/	wio-	.
.	4A</ 4c 4e	.	4cc\	-sny	.
=200	=200	=200	=200	=200	=200
4AA\ 4A	4ra	.	(2e/	ra-	<
4rC	4c/ 4e 4a	.	.	.	.
((2EE-X^>/ 2E-X	4ra	.	4aa\)	.	[[
.	4c/ 4g 4a	.	4gg\	-nek	.
!!LO:LB:g=original	!	!	!	!	!	!	!
=201	=201	=201	=201	=201	=201
!LO:TX:b:t=Wtéj Operze są dwie Arye a raczéj dwie Stretty. Jezeli więc kto chce spiewać Arye No 2gim oznaczoną; niech przejdzie  od znaku + do\npodobnegoż znaku na początku Aryi No 2gi.	!	!	!	!	!
4DD/)) 4D	4ra	.	(8ff#\L	wio-	.
.	.	.	8ee\J)	.	.
4rC	4c/ 4f# 4a	.	(8dd\L	-sny	.
.	.	.	8cc#X\J)	.	.
4DD/ 4D	4ra	.	(8dd\L	szczę-	.
.	.	.	8dd#X\J)	.	.
4rC	4c/ 4d 4f#	.	(8ee\L	-ścia	.
.	.	.	8ccn\J)	.	.
=202	=202	=202	=202	=202	=202
[2GG/ [2G	4ra	.	2a#X^>/	ra-	.
.	4c^>/ 4d 4f#	.	.	.	.
4GG/] 4G]	4B/ 4d 4g	.	4b\	-nek	.
4rC	4B/ 4d 4g	.	4r	.	.
=203	=203	=203	=203	=203	=203
4FF#/ 4F#	4ra	.	2bt\	Je-	.
*	*tremolo	*	*	*	*
4rC	16B/LL 16d 16f#	.	.	.	.
.	16B/ 16d 16f#	.	.	.	.
.	16B/ 16d 16f#	.	.	.	.
.	16B/JJ 16d 16f#	.	.	.	.
.	.	.	16qqa#X/L	.	.
.	.	.	16qqb/J	.	.
4FF#/ 4F#	4A#X/ 4e 4f#	.	4cc#X\	.	.
4rC	4A#/ 4e 4f#	.	4f#/	-stem	.
=204	=204	=204	=204	=204	=204
4BBB/ 4BB	4ra	.	4dd\	bli-	.
*	*Xtremolo	*	*	*	*
4rC	16B/LL 16d 16f#	.	(16dd\LL	.	.
.	16B/ 16d 16f#	.	16ee\	.	.
.	16B/ 16d 16f#	.	16cc#X\	.	.
.	16B/JJ 16d 16f#	.	16dd\JJ)	.	.
2rD	4B/ 4d 4f#	.	4b\	-zką	.
.	4B/ 4d 4f#	.	4r	.	.
=205	=205	=205	=205	=205	=205
*	*^	*	*	*	*
*	*	*^	*	*	*	*
(4B\	4ryy	4ryy	4r	<	2ddT\	cier-	.
4B-X\	(>2.g/	4ryy	2d\	.	.	.	.
.	.	.	.	.	16qqcc#X/L	.	.
.	.	.	.	.	16qqdd/J	.	.
2A\	.	(>2e/	.	[ >	4ee\	.	.
.	.	.	(<4c#X\	]]	4a/	-pień	.
*	*	*v	*v	*	*	*	*
=206	=206	=206	=206	=206	=206	=206
4DD/) 4D	4f#/))	4d\)	.	([4ff#\	koń-	.
*	*v	*v	*	*	*	*
4rAA	16A</LL 16d 16f#	.	16ff#\LL]	.	.
.	16A</ 16d 16f#	.	16gg\	.	.
.	16A</ 16d 16f#	.	16ee\	.	.
.	16A</JJ 16d 16f#	.	16ff#\JJ)	.	.
2rC	4A</ 4d 4f#	.	4dd\	-ca	.
.	4A</ 4d 4f#	.	4r	.	.
!!LO:PB:g=original	!	!	!	!	!	!	!
=207	=207	=207	=207	=207	=207
*	*tremolo	*	*	*	*
4DD/ 4D	(8c/L 8f#	p	(16cc#X\LL	bo	.
.	.	.	16dd\	.	.
.	8d/	.	16ee\	.	.
.	.	.	16cc#\JJ)	.	.
4rC	8c/ 8f#	.	4a/	już	.
.	8d/J)	.	.	.	.
4DD/ 4D	(8c/L 8f#	.	(16cc#\LL	spie-	.
.	.	.	16dd\	.	.
.	8d/	.	16ee\	.	.
.	.	.	16dd\JJ)	.	.
4rC	8c/ 8f#	.	4a/	-szy	.
.	8d/J)	.	.	.	.
=208	=208	=208	=208	=208	=208
4DD/ 4D	(8B/L 8g	.	4dd\	spie-	.
.	8d/	.	.	.	.
4rC	8B/ 8g	.	2gg^\	.	.
.	8d/J)	.	.	.	.
4DD/ 4D	(8B/L 8g	.	.	.	.
.	8d/	.	.	.	.
4rC	8B/ 8g	.	(8ff#\L	-szy	.
.	8d/J)	.	8ee\J)	.	.
=209	=209	=209	=209	=209	=209
!	!	!	!LO:TUP:a:problem:klamra łukowa	!	!
4DD/ 4D	(8c/L 8f#	.	12ee^\L	ko-	.
.	.	.	12dd#X\	.	.
.	8d/	.	.	.	.
.	.	.	12cc#y\J	.	.
!	!	!	!LO:TUP:a:problem:klamra łukowa	!	!
4rC	8c/ 8f#	.	12ee\L	-cha-	.
.	.	.	12dd#\	.	.
.	8d/J)	.	.	.	.
.	.	.	12cc#\J	.	.
!	!	!	!LO:TUP:a:problem:klamra łukowa	!	!
4DD/ 4D	(8c/L 8f#	.	12ee^\L	-nek	.
.	.	.	12dd#\	.	.
.	8d/	.	.	.	.
.	.	.	12ccn\J	.	.
!	!	!	!LO:TUP:a:problem:klamra łukowa	!	!
4rC	8c/ 8f#	.	12cc\L	ko-	.
.	.	.	12b\	.	.
.	8d/J)	.	.	.	.
.	.	.	12a#X\J	.	.
=210	=210	=210	=210	=210	=210
[2GGG/ [2GG	(8c/L 8f#	.	(2a#X^>/	-cha-	.
.	8d/	.	.	.	.
.	8c/ 8f#	.	.	.	.
.	8d/J)	.	.	.	.
4GGG/] 4GG]	(8B/L 8g	.	4b\)	-nek	.
.	8d/	.	.	.	.
4rC	8B/ 8g	.	4r	.	.
.	8d/J)	.	.	.	.
!!LO:LB:g=original	!	!	!	!	!	!	!
=211	=211	=211	=211	=211	=211
4BBB/ 4BB	8ra	.	(16cc#X\LL	Je-	.
.	.	.	16dd\	.	.
*	*Xtremolo	*	*	*	*
.	(8G/L	.	16ee\	.	.
.	.	.	16dd\JJ	.	.
4rC	8d/ 8g	.	4b\)	.	.
.	8G/J)	.	.	.	.
4BBB/ 4BB	8ra	.	(16a#X/LL	-stem	.
.	.	.	16b/	.	.
.	(8G/L	.	16cc#/	.	.
.	.	.	16a#/JJ	.	.
4rC	8d/ 8fn	.	4g/)	.	.
.	8G/J)	.	.	.	.
=212	=212	=212	=212	=212	=212
4CC/ 4C	8ra	.	2g^>/	bli-	.
.	(8G/L	.	.	.	.
4rC	8c/ 8e	.	.	.	.
.	8G/J)	.	.	.	.
4CC/ 4C	8ra	.	4e/	-zką	.
.	(8G/L	.	.	.	.
4rC	8c/ 8e	.	4r	.	.
.	8G/J)	.	.	.	.
=213	=213	=213	=213	=213	=213
4CC#X/ 4C#X	8ra	.	(16dd#X\LL	cier-	.
.	.	.	16ee\	.	.
.	(8A/L	.	16ff#\	.	.
.	.	.	16ee\JJ	.	.
!	!LO:TX:b:t=poco cres-:dur=24e:ext=cd:problem:text with extention lines	!	!	!	!
4rC	8e/ 8a	<	4cc#X\)	.	.
.	8A/J)	.	.	.	.
4CC#/ 4C#	8ra	.	(16b#X\LL	-pień	.
.	.	.	16cc#\	.	.
.	(8A/L	.	16ddn\	.	.
.	.	.	16cc#\JJ	.	.
4rC	8e/ 8a	.	4a/)	.	.
.	8A/J)	.	.	.	.
=214	=214	=214	=214	=214	=214
4DD/ 4D	8ra	.	2a/	koń-	.
.	(8A/L	.	.	.	.
4rC	8d/ 8f#	.	.	.	.
.	8A/J)	.	.	.	.
4DD/ 4D	8ra	.	4f#/	-ca	.
.	(8A/L	.	.	.	.
4rC	8d/ 8f#	.	4r	.	.
.	8A/J)	.	.	.	.
!!LO:LB:g=original	!	!	!	!	!	!	!
=215	=215	=215	=215	=215	=215
!	!	!	!	!	!LO:DY:a
4DD#X/ 4D#X	8ra	.	(16ee#X\LL	bo	<
.	.	.	16ff#\	.	.
.	(8B/L	.	16gg\	.	.
.	.	.	16ff#\JJ	.	.
4rC	8f#/ 8b	.	4dd#X\)	.	.
.	8B/J)	.	.	.	.
4DD#/ 4D#	8ra	.	(16cc##X\LL	już	.
.	.	.	16dd#\	.	.
.	(8B/L	.	16een\	.	.
.	.	.	16dd#\JJ	.	.
4rC	8f#/ 8a	.	4b\)	.	[[
.	8B/J)	.	.	.	.
=216	=216	=216	=216	=216	=216
4EE/ 4E	8ra	.	2b\	spie-	.
.	(8B/L	.	.	.	.
4rC	8e/ 8g	.	.	.	.
.	8B/J)	.	.	.	.
4EE/ 4E	8ra	.	4g/	-szy	.
.	(8B/L	.	.	.	.
!	!	!	!	!	!LO:DY:a
4rC	8e/ 8g	.	4gg\	ko-	f
.	8B/J)	[[	.	.	.
=217	=217	=217	=217	=217	=217
4FF#/ 4F#	4ra	f	(4.aa\	-cha-	.
4rC	4A/ 4d 4a	.	.	.	.
.	.	.	8gg\	.	.
4DD/ 4D	4ra	.	8ff#\L	.	.
.	.	.	8ee\	.	.
4rC	4A/ 4d 4f#	.	8dd\	.	.
.	.	.	8cc\J)	.	.
=218	=218	=218	=218	=218	=218
8G\	8ra	.	4b\	-nek	.
8rC	8B/ 8d 8g	mf	.	.	.
8D\	8ra	.	(16cc#X\LL	spie-	.
.	.	.	16dd\	.	.
8rC	8B/ 8d 8g	.	16ee\	.	.
.	.	.	16dd\JJ)	.	.
8F#\	8ra	.	4a/	-szy	.
8rC	8c/ 8d 8a	.	.	.	.
8D\	8ra	.	(16cc#\LL	do	.
.	.	.	16dd\	.	.
8rC	8c/ 8d 8f#	.	16ee\	.	.
.	.	.	16dd\JJ	.	.
!!LO:LB:g=original	!	!	!	!	!	!	!
=219	=219	=219	=219	=219	=219
!	!LO:TX:b:t=cres-:dur=4e:ext=cd:problem:text with extention lines	!	!	!	!
8G\	8ra	<	4b\)	mnie	.
8rC	8B/ 8d 8g	.	.	.	.
8D\	8ra	.	(16dd\LL	spie-	.
.	.	.	16gg\	.	.
8rC	8B/ 8d 8g	.	16ff#\	.	.
.	.	.	16ee\JJ	.	.
8F#\	8ra	.	4dd\)	-szy	.
8rC	8c/ 8d 8a	.	.	.	.
8D\	8ra	.	(16a\LL	do	.
.	.	.	16ee\	.	.
8rC	8c/ 8d 8f#	.	16dd\	.	.
.	.	[[	16cc\JJ	.	.
=220	=220	=220	=220	=220	=220
8GG/ 8G	4B/ 4d 4g	f	4b\)	mnie	.
*Xtremolo	*	*	*	*	*
8G\L 8B 8d	.	.	.	.	.
8G\ 8B 8d	(16ff#\LL	.	4r	.	.
.	16gg\	.	.	.	.
8G\J 8B 8d	16aa\	.	.	.	.
.	16gg\JJ)	.	.	.	.
*tremolo	*	*	*	*	*
8G\L 8d 8fn	4bb\	.	2r	.	.
8G\ 8d 8f	.	.	.	.	.
8G\ 8d 8f	(16ff#\LL	.	.	.	.
.	16gg\	.	.	.	.
8G\J 8d 8f	16aa\	.	.	.	.
.	16gg\JJ)	.	.	.	.
=221	=221	=221	=221	=221	=221
8G\L 8c 8e	4ccc\	.	1r	.	.
8G\ 8c 8e	.	.	.	.	.
8G\ 8c 8e	(16bb\LL	.	.	.	.
.	16ccc\	.	.	.	.
8G\J 8c 8e	16ddd\	.	.	.	.
.	16ccc\JJ)	.	.	.	.
8G\L 8c 8d 8f#X	4aa\	.	.	.	.
8G\ 8c 8d 8f#	.	.	.	.	.
8G\ 8c 8d 8f#	(16ccc#X\LL	.	.	.	.
.	16ddd\	.	.	.	.
8G\J 8c 8d 8f#	16eee\	.	.	.	.
.	16ddd\JJ)	.	.	.	.
=222	=222	=222	=222	=222	=222
8G\L 8B 8d 8g	4bb\	.	1r	.	.
8G\ 8B 8d 8g	.	.	.	.	.
8G\ 8B 8d 8g	(16ff#\LL	.	.	.	.
.	16gg\	.	.	.	.
8G\J 8B 8d 8g	16aa\	.	.	.	.
.	16gg\JJ)	.	.	.	.
8G\L 8d 8fn	4bb\	.	.	.	.
8G\ 8d 8f	.	.	.	.	.
8G\ 8d 8f	(16ff#\LL	.	.	.	.
.	16gg\	.	.	.	.
8G\J 8d 8f	16aa\	.	.	.	.
.	16gg\JJ)	.	.	.	.
!!LO:LB:g=original	!	!	!	!	!	!	!
=223	=223	=223	=223	=223	=223
8G\L 8c 8e	4ccc'\	.	1r	.	.
8G\ 8c 8e	.	.	.	.	.
8G\ 8c 8e	(16bb\LL	.	.	.	.
.	16ccc\	.	.	.	.
8G\J 8c 8e	16ddd\	.	.	.	.
.	16ccc\JJ)	.	.	.	.
8G\L 8c 8d 8f#X	4aa'\	.	.	.	.
8G\ 8c 8d 8f#	.	.	.	.	.
8G\ 8c 8d 8f#	(16ccc#X\LL	.	.	.	.
.	16ddd\	.	.	.	.
8G\J 8c 8d 8f#	16eee\	.	.	.	.
.	16ddd\JJ)	.	.	.	.
=224	=224	=224	=224	=224	=224
*>A1	*>A1	*>A1	*>A1	*>A1	*>A1
4G\ 4B 4d 4g	4ggg\	.	2.dd;\	spie-	.
4rC	4ra	.	.	.	.
4rC;	4ra;	.	.	.	.
.	.	.	16qqdd/LL	.	.
.	.	.	16qqcc#X/	.	.
.	.	.	16qqee/	.	.
.	.	.	16qqdd/JJ	.	.
.	.	.	16qqgg/LL	.	.
.	.	.	16qqa#X/	.	.
.	.	.	16qqccn/	.	.
.	.	.	16qqb/JJ	.	.
.	.	.	16qqdd/LL	.	.
.	.	.	16qqf#/	.	.
.	.	.	16qqan/	.	.
.	.	.	16qqg/JJ	.	.
4AA;/	4A;/ 4c#X 4g	p	8.b;/L	.	.
.	.	.	16any/Jk	.	.
=225	=225	=225	=225	=225	=225
4D\ 4F# 4A	4F#</ 4A< 4d	.	2d;/	-szy	.
4rC	4ra	.	.	.	.
*	*	*	*rscale:2	*	*
*	*	*	*Xtuplet	*	*
*	*	*	*Xbrackettup	*	*
2rD;	2rdd;	.	28%2e/	ach!	.
.	.	.	28%2f#/	.	.
.	.	.	28%2g/	.	.
.	.	.	28%2a/	.	.
.	.	.	28%2b\	.	.
.	.	.	28%2cc\	.	.
.	.	.	28%2cc#X;\	.	.
*	*	*	*rscale:auto	*	*
=226:|!	=226:|!	=226:|!	=226:|!	=226:|!	=226:|!
*>A2	*>A2	*>A2	*>A2	*>A2	*>A2
4G\ 4B 4d 4g	4ggg\	.	4r	.	.
4rC	4ra	.	2b;\	Ach!	.
4rC;	4ra;	.	.	.	.
4rC	4ra	.	4b\	już	.
!!LO:PB:g=original	!	!	!	!	!	!	!
=227	=227	=227	=227	=227	=227
*>B	*>B	*>B	*>B	*>B	*>B
!LO:TX:a:i:t=animato	!	!	!LO:TX:a:i:t=animato	!	!
.	.	.	(8qdd/	.	.
8F#\	8B/ 8d#X 8a	mf	8cc^\L)	spie-	.
8rC	8ra	.	8b\J	.	.
.	.	.	(8qdd/	.	.
8F#\	8B/ 8d# 8a	.	8cc^\L)	-szy	.
8rC	8ra	.	8b\J	.	.
.	.	.	(8qdd/	.	.
8F#\	8B/ 8d# 8a	.	8cc^\L)	do	.
8rC	8ra	.	8b\J	.	.
.	.	.	(8qdd/	.	.
8F#\	8B/ 8d# 8a	.	8cc^\L)	mnie	.
8rC	8ra	.	8b\J	.	.
=228	=228	=228	=228	=228	=228
8E\	8B/ 8e 8g	.	(4b\	spie-	.
8rC	8ra	.	.	.	.
8E\	8B/ 8e 8g	.	2gg^\)	.	.
8rC	8ra	.	.	.	.
8E\	8B/ 8e 8g	.	.	.	.
8rC	8ra	.	.	.	.
8E\	8B/ 8e 8g	.	4g/	-szy	.
8rC	8ra	.	.	.	.
=229	=229	=229	=229	=229	=229
.	.	.	(8qb/	.	.
8D\	8G/ 8B 8fn	.	8a^>/L)	ko-	.
!	!LO:TX:b:t=poco cres-:dur=11e:ext=cd:problem:text with extention lines	!	!	!	!
8rC	8ra	<	8g/J	.	.
.	.	.	(8qb/	.	.
8D\	8G/ 8B 8f	.	8a^>/L)	-cha-	.
8rC	8ra	.	8g/J	.	.
.	.	.	(8qb/	.	.
8D\	8G/ 8B 8f	.	8a^>/L)	-nek	.
8rC	8ra	.	8g/J	.	.
.	.	.	(8qb/	.	.
8D\	8G/ 8B 8f	.	8a^>/L)	ko-	.
8rC	8ra	.	8g/J	.	.
=230	=230	=230	=230	=230	=230
8C/	8G/ 8c 8e	.	(4g/	-cha-	.
8rC	8ra	.	.	.	.
8C/	8G/ 8c 8e	.	2ee^\)	.	.
8rC	8ra	.	.	.	.
8C/	8G/ 8c 8e	.	.	.	.
8rC	8ra	.	.	.	.
8C/	8G/ 8c 8e	.	4e/	-nek	.
8rC	8ra	.	.	.	.
!!LO:LB:g=original	!	!	!	!	!	!	!
=231	=231	=231	=231	=231	=231
.	.	.	(8qg/	.	.
8BB\	8E</ 8G#X< 8d	.	(8fn^>/L)	ach!	.
8rC	8ra	.	8e/J)	.	.
.	.	.	(8qg/	.	.
8BB\	8E</ 8G#< 8d	.	(8f^>/L)	już	.
8rC	8ra	.	8e/J)	.	.
.	.	.	(8qg/	.	.
8BB\	8E</ 8G#< 8d	.	(8f^>/L)	spie-	.
8rC	8ra	.	8e/J)	.	.
.	.	.	(8qg/	.	.
8BB\	8E</ 8G#< 8d	.	(8f^>/L)	-szy	.
8rC	8ra	[[	8e/J)	.	.
=232	=232	=232	=232	=232	=232
*Xtremolo	*	*	*	*	*
8AA\L	8E</L 8A< 8c	f	4e/	ko-	.
8AA\	8E</J 8A< 8c	.	.	.	.
!	!	!	!	!	!LO:DY:a
8AA\	8A</L 8c 8e	.	2cc\	-cha-	<
8AA\J	8A</J 8c 8e	.	.	.	.
8A\L	8c/L 8e 8a	.	.	.	.
8A\J	8c/J 8e 8a	.	.	.	.
8G\L	8c/L 8e-X 8a	.	([4aa\	.	[
8G\J	8c/J 8e- 8a	.	.	.	.
=233	=233	=233	=233	=233	=233
*tremolo	*tremolo	*	*	*	*
!	!	!	!	!	!LO:DY:a
8F#\L	8c/L 8d 8a	.	4.aa\]	.	f
8F#\	8c/ 8d 8a	.	.	.	.
8F#\	8c/ 8d 8a	.	.	.	.
8F#\J	8c/J 8d 8a	.	8gg\	.	.
*Xtremolo	*	*	*	*	*
8A\L	8c/L 8d 8f#	.	8ff#\L	.	.
8A\J	8c/ 8d 8f#	.	8ee\	.	.
8D\L	8c/ 8d 8f#	.	8dd\	.	.
8D\J	8c/J 8d 8f#	.	8cc\J)	.	.
=234	=234	=234	=234	=234	=234
8GG/ 8G	8ra	f	4b\	-nek	.
8rC	8B/ 8d 8g	p	.	.	.
8GG/ 8G	8ra	.	(16ff#X\LL	ah!	.
.	.	.	16gg\	.	.
8rC	8B/ 8d 8g	.	16dd\	.	.
.	.	.	16b\JJ)	.	.
8CC/ 8C	8ra	.	4a/	już	.
8rC	8c/ 8e 8a	.	.	.	.
8CC/ 8C	8ra	.	(16dd#X\LL	spie-	.
.	.	.	16ee\	.	.
8rC	8c/ 8e 8a	.	16cc\	.	.
.	.	.	16a\JJ)	.	.
!!LO:LB:g=original	!	!	!	!	!	!	!
=235	=235	=235	=235	=235	=235
8DD/ 8D	8ra	.	4g/	-szy	.
8rC	8B/ 8d 8g	.	.	.	.
8DD/ 8D	8ra	.	(16cc#X\LL	ah!	.
.	.	.	16dd\	.	.
8rC	8B/ 8d 8g	.	16b\	.	.
.	.	.	16g\JJ)	.	.
8DD/ 8D	8ra	.	4f#/	już	.
8rC	8c/ 8d 8f#	.	.	.	.
8DD/ 8D	8ra	.	(16b/LL	spie-	.
.	.	.	16ccn/	.	.
8rC	8c/ 8d 8f#	.	16a/	.	.
.	.	.	16f#/JJ)	.	.
=236	=236	=236	=236	=236	=236
8GG/ 8G	4B/ 4d 4g	.	4g/	-szy	.
8G\L 8B 8d	.	.	.	.	.
8G\ 8B 8d	(16ff#\LL	.	4r	.	.
.	16gg\	.	.	.	.
8G\J 8B 8d	16aa\	.	.	.	.
.	16gg\JJ)	.	.	.	.
*tremolo	*	*	*	*	*
8G\L 8d 8fn	4bb\	.	2r	.	.
8G\ 8d 8f	.	.	.	.	.
8G\ 8d 8f	(16ff#\LL	.	.	.	.
.	16gg\	.	.	.	.
8G\J 8d 8f	16aa\	.	.	.	.
.	16gg\JJ)	.	.	.	.
=237	=237	=237	=237	=237	=237
8G\L 8c 8e	4ccc\	.	1r	.	.
8G\ 8c 8e	.	.	.	.	.
8G\ 8c 8e	(16bb\LL	.	.	.	.
.	16ccc\	.	.	.	.
8G\J 8c 8e	16ddd\	.	.	.	.
.	16ccc\JJ)	.	.	.	.
8G\L 8c 8d 8f#	4aa\	.	.	.	.
8G\ 8c 8d 8f#	.	.	.	.	.
8G\ 8c 8d 8f#	(16ccc#X\LL	.	.	.	.
.	16ddd\	.	.	.	.
8G\J 8c 8d 8f#	16eee\	.	.	.	.
.	16ddd\JJ)	.	.	.	.
=238	=238	=238	=238	=238	=238
8G\L 8B 8d 8g	4bb\	.	1r	.	.
8G\ 8B 8d 8g	.	.	.	.	.
8G\ 8B 8d 8g	(16ff#\LL	.	.	.	.
.	16gg\	.	.	.	.
8G\J 8B 8d 8g	16aa\	.	.	.	.
.	16gg\JJ)	.	.	.	.
8G\L 8d 8fn	4bb\	.	.	.	.
8G\ 8d 8f	.	.	.	.	.
8G\ 8d 8f	(16ff#\LL	.	.	.	.
.	16gg\	.	.	.	.
8G\J 8d 8f	16aa\	.	.	.	.
.	16gg\JJ)	.	.	.	.
!!LO:LB:g=original	!	!	!	!	!	!	!
=239	=239	=239	=239	=239	=239
8G\L 8c 8e	4ccc\	.	1r	.	.
8G\ 8c 8e	.	.	.	.	.
8G\ 8c 8e	(16bb\LL	.	.	.	.
.	16ccc\	.	.	.	.
8G\J 8c 8e	16ddd\	.	.	.	.
.	16ccc\JJ)	.	.	.	.
8G\L 8c 8d 8f#X	4aa\	.	.	.	.
8G\ 8c 8d 8f#	.	.	.	.	.
8G\ 8c 8d 8f#	(16ccc#X\LL	.	.	.	.
.	16ddd\	.	.	.	.
8G\J 8c 8d 8f#	16eee\	.	.	.	.
.	16ddd\JJ)	.	.	.	.
=240	=240	=240	=240	=240	=240
4G\ 4B 4d 4g	4ggg\	.	4r	.	.
4rC	4ra	.	2b;\	ah!	.
4rC;	4ra;	.	.	.	.
4rC	4ra	.	4b\	już	.
=241	=241	=241	=241	=241	=241
.	.	.	(8qdd/	.	.
8F#X\	8B/ 8d#X 8a	p	(8cc^\L)	spie-	.
8rC	8ra	.	8b\J)	.	.
.	.	.	(8qdd/	.	.
8F#\	8B/ 8d# 8a	.	(8cc^\L)	-szy	.
8rC	8ra	.	8b\J)	.	.
.	.	.	(8qdd/	.	.
8F#\	8B/ 8d# 8a	.	(8cc^\L)	do	.
8rC	8ra	.	8b\J)	.	.
.	.	.	(8qdd/	.	.
8F#\	8B/ 8d# 8a	.	(8cc^\L)	mnie	.
8rC	8ra	.	8b\J)	.	.
=242	=242	=242	=242	=242	=242
8E\	8B/ 8e 8g	.	4b\	spie-	.
8rC	8ra	.	.	.	.
8E\	8B/ 8e 8g	.	2gg^\	.	.
8rC	8ra	.	.	.	.
8E\	8B/ 8e 8g	.	.	.	.
8rC	8ra	.	.	.	.
8E\	8B/ 8e 8g	.	4g/	-szy	.
8rC	8ra	.	.	.	.
=243	=243	=243	=243	=243	=243
.	.	.	(8qb/	.	.
8D\	8G/ 8B 8fn	.	8a/L)	ko-	.
8rC	8ra	.	8g/J	.	.
.	.	.	(8qb/	.	.
8D\	8G/ 8B 8f	.	8a/L)	-cha-	.
8rC	8ra	.	8g/J	.	.
.	.	.	(8qb/	.	.
8D\	8G/ 8B 8f	.	8a/L)	-nek	.
8rC	8ra	.	8g/J	.	.
.	.	.	(8qb/	.	.
8D\	8G/ 8B 8f	.	8a/L)	ko-	.
8rC	8ra	.	8g/J	.	.
!!LO:LB:g=original	!	!	!	!	!	!	!
=244	=244	=244	=244	=244	=244
8C/	8G/ 8c 8e	.	4g/	-cha-	.
8rC	8ra	.	.	.	.
8C/	8G/ 8c 8e	.	2ee^\	.	.
8rC	8ra	.	.	.	.
8C/	8G/ 8c 8e	.	.	.	.
8rC	8ra	.	.	.	.
8C/	8G/ 8c 8e	.	4e/	-nek	.
8rC	8ra	.	.	.	.
=245	=245	=245	=245	=245	=245
.	.	.	(8qg/	.	.
8BB\	8E</ 8G#X< 8d	<	8fn/L)	ah!	.
8rAA	8ra	.	8e/J	.	.
.	.	.	(8qg/	.	.
8BB\	8E</ 8G#< 8d	.	8f/L)	już	.
8rAA	8ra	.	8e/J	.	.
.	.	.	(8qg/	.	.
8BB\	8E</ 8G#< 8d	.	8f/L)	spie-	.
8rAA	8ra	.	8e/J	.	.
.	.	.	(8qg/	.	.
8BB\	8E</ 8G#< 8d	.	8f/L)	-szy	.
8rAA	8ra	[	8e/J	.	.
=246	=246	=246	=246	=246	=246
*Xtremolo	*Xtremolo	*	*	*	*
!	!LO:TX:b:t=cres-:dur=8e:ext=cd:problem:text with extention lines	!	!	!	!
8AA\L	8E</L 8A< 8c	<	4e/	ko-	.
8AA\	8E</J 8A< 8c	.	.	.	.
8AA\	8A</L 8c 8e	.	2cc\	-cha-	.
8AA\J	8A</J 8c 8e	.	.	.	.
8A\L	8c/L 8e 8a	.	.	.	.
8A\J	8c/J 8e 8a	.	.	.	.
8G\L	8c/L 8e-X 8a	.	[4aa\	.	.
8G\J	8c/J 8e- 8a	[[	.	.	.
=247	=247	=247	=247	=247	=247
*tremolo	*tremolo	*	*	*	*
8F#\L	8c/L 8d 8a	f	(4.aa\]	.	.
8F#\	8c/ 8d 8a	.	.	.	.
8F#\	8c/ 8d 8a	.	.	.	.
8F#\J	8c/J 8d 8a	.	8gg\	.	.
*Xtremolo	*	*	*	*	*
8A\L	8c/L 8d 8f#	.	8ff#\L	.	.
8A\J	8c/ 8d 8f#	.	8ee\	.	.
8D\L	8c/ 8d 8f#	.	8dd\	.	.
8D\J	8c/J 8d 8f#	.	8cc\J	.	.
=248	=248	=248	=248	=248	=248
*tremolo	*	*	*	*	*
8GG/L 8G	16d/LL 16g	.	4b\)	-nek	.
.	16B/	.	.	.	.
8GG/ 8G	16d/ 16g	.	.	.	.
.	16B/	.	.	.	.
8GG/ 8G	16d/ 16g	.	2gg^\	spie-	.
.	16B/	.	.	.	.
8GG/J 8G	16d/ 16g	.	.	.	.
.	16B/JJ	.	.	.	.
8CC/L 8C	16cc\LL 16ee	.	.	.	.
.	16g\	.	.	.	.
8CC/ 8C	16cc\ 16ee	.	.	.	.
.	16g\	.	.	.	.
8CC/ 8C	16cc\ 16ee	.	8ee\L	-szy	.
.	16g\	.	.	.	.
8CC/J 8C	16cc\ 16ee	.	8cc\J	.	.
.	16g\JJ	.	.	.	.
!!LO:PB:g=original	!	!	!	!	!	!	!
=249	=249	=249	=249	=249	=249
8DD/L 8D	16b\LL 16dd	.	4g/	ko-	.
.	16g\	.	.	.	.
8DD/ 8D	16b\ 16dd	.	.	.	.
.	16g\	.	.	.	.
8DD/ 8D	16b\ 16dd	.	2dd^\	-cha-	.
.	16g\	.	.	.	.
8DD/J 8D	16b\ 16dd	.	.	.	.
.	16g\JJ	.	.	.	.
8DD/L 8D	16cc\LL 16ff#X	.	.	.	.
.	16a\	.	.	.	.
8DD/ 8D	16cc\ 16ff#	.	.	.	.
.	16a\	.	.	.	.
8DD/ 8D	16cc\ 16ff#	.	8cc\L	.	.
.	16a\	.	.	.	.
8DD/J 8D	16cc\ 16ff#	.	8a\J	.	.
.	16a\JJ	.	.	.	.
=250	=250	=250	=250	=250	=250
8GG/L 8G	16b\LL 16gg	<	4g/	-nek	.
.	16g\	.	.	.	.
8GG/ 8G	16b\ 16gg	.	.	.	.
.	16g\	.	.	.	.
8GG/ 8G	16b\ 16gg	.	4r	.	.
.	16g\	.	.	.	.
8GG/J 8G	16b\ 16gg	.	.	.	.
.	16g\JJ	.	.	.	.
8GG/L 8G	16b\LL 16gg	.	2gg\	ah!	.
.	16g\	.	.	.	.
8GG/ 8G	16b\ 16gg	.	.	.	.
.	16g\	.	.	.	.
8GG/ 8G	16b\ 16gg	.	.	.	.
.	16g\	.	.	.	.
8GG/J 8G	16b\ 16gg	.	.	.	.
.	16g\JJ	[[	.	.	.
=251	=251	=251	=251	=251	=251
8GG/L 8G	16cc\LL 16ff#X	.	2ff#X\	spie-	.
.	16a\	.	.	.	.
8GG/ 8G	16cc\ 16ff#	.	.	.	.
.	16a\	.	.	.	.
8GG/ 8G	16cc\ 16ff#	.	.	.	.
.	16a\	.	.	.	.
8GG/J 8G	16cc\ 16ff#	.	.	.	.
.	16a\JJ	.	.	.	.
8GG/L 8G	16dd\LL 16ffn	.	2ffn\	-szy	.
.	16b\	.	.	.	.
8GG/ 8G	16dd\ 16ff	.	.	.	.
.	16b\	.	.	.	.
8GG/ 8G	16dd\ 16ff	.	.	.	.
.	16b\	.	.	.	.
8GG/J 8G	16dd\ 16ff	.	.	.	.
.	16b\JJ	.	.	.	.
=252	=252	=252	=252	=252	=252
8GG/L 8G	16cc\LL 16ee	>	2ee\	mój	.
.	16g\	.	.	.	.
8GG/ 8G	16cc\ 16ee	.	.	.	.
.	16g\	.	.	.	.
8GG/ 8G	16cc\ 16ee	.	.	.	.
.	16g\	.	.	.	.
8GG/J 8G	16cc\ 16ee	.	.	.	.
.	16g\JJ	.	.	.	.
8GG/L 8G	16cc\LL 16ee-X	.	2ee-X\	ko-	.
.	16g\	.	.	.	.
8GG/ 8G	16cc\ 16ee-	.	.	.	.
.	16g\	.	.	.	.
8GG/ 8G	16cc\ 16ee-	.	.	.	.
.	16g\	.	.	.	.
8GG/J 8G	16cc\ 16ee-	.	.	.	.
.	16g\JJ	]	.	.	.
=253	=253	=253	=253	=253	=253
*	*tremolo	*	*	*	*
8GG/L 8G	16b\LL 16dd	p	(2dd\	-cha-	.
.	16g\	.	.	.	.
8GG/ 8G	16b\ 16dd	.	.	.	.
.	16g\	.	.	.	.
8GG/ 8G	16b\ 16dd	.	.	.	.
.	16g\	.	.	.	.
8GG/J 8G	16b\ 16dd	.	.	.	.
.	16g\JJ	.	.	.	.
*	*Xtremolo	*	*	*	*
8GG/L 8G	16a/LL 16cc	.	2cc\)	.	.
.	16g/	.	.	.	.
8GG/ 8G	16a/ 16cc	.	.	.	.
.	16g/JJ	.	.	.	.
8GG/ 8G	16a/LL 16cc	.	.	.	.
.	16f#X/	.	.	.	.
8GG/J 8G	16a/ 16cc	.	.	.	.
.	16f#/JJ	.	.	.	.
=254	=254	=254	=254	=254	=254
*	*tremolo	*	*	*	*
8GG/L 8G	16g/LL 16b	.	4b\	-nek	.
!	!	!LO:HP:b:t=dimin	!	!	!
.	16d/	>	.	.	.
8GG/ 8G	16g/ 16b	.	.	.	.
.	16d/	.	.	.	.
8GG/ 8G	16g/ 16b	.	4r	.	.
.	16d/	.	.	.	.
8GG/J 8G	16g/ 16b	.	.	.	.
.	16d/JJ	.	.	.	.
8GG/L 8G	16g/LL 16b-X	.	2r	.	.
.	16d/	.	.	.	.
8GG/ 8G	16g/ 16b-	.	.	.	.
.	16d/	.	.	.	.
8GG/ 8G	16g/ 16b-	.	.	.	.
.	16d/	.	.	.	.
8GG/J 8G	16g/ 16b-	.	.	.	.
.	16d/JJ	.	.	.	.
=255	=255	=255	=255	=255	=255
8FFn/L 8Fn	16a-X/LL 16b-X	.	1r	.	.
.	16d/	.	.	.	.
8FF/ 8F	16a-/ 16b-	.	.	.	.
.	16d/	.	.	.	.
8FF/ 8F	16a-/ 16b-	.	.	.	.
.	16d/	.	.	.	.
8FF/J 8F	16a-/ 16b-	.	.	.	.
.	16d/JJ	.	.	.	.
8EE-X/L 8E-X	16g/LL 16b-	.	.	.	.
.	16e-X/	.	.	.	.
8EE-/ 8E-	16g/ 16b-	.	.	.	.
.	16e-/	.	.	.	.
8EE-/ 8E-	16g/ 16b-	.	.	.	.
.	16e-/	.	.	.	.
8EE-/J 8E-	16g/ 16b-	.	.	.	.
.	16e-X/JJ	.	.	.	.
!!LO:LB:g=original	!	!	!	!	!	!	!
=256	=256	=256	=256	=256	=256
8D\L 8Fn 8A-X	(16een\LL	p	2r	.	.
.	16gg\	.	.	.	.
8BB-X\	16ffn\	.	.	.	.
.	16dd\JJ)	.	.	.	.
8D\ 8F 8A-	4b-X\	.	.	.	.
8BB-X\J	.	.	.	.	.
8E-X\L 8G	(16aa\LL	.	4cc^\	Spie-	.
.	16ccc\	.	.	.	.
8BB-\	16bb-X\	.	.	.	.
.	16gg\JJ)	.	.	.	.
8E-\ 8G	4ee-X\	.	4b-X\	-szy	.
8BB-\J	.	.	.	.	.
=257	=257	=257	=257	=257	=257
8Dn\L 8F# 8A-X	(16een\LL	.	2r	.	.
.	16gg\	.	.	.	.
8BB-X\	16ffn\	.	.	.	.
!	!LO:TX:b:t=poco cres-:dur=20s6q:ext=cd:problem:text with extention lines	!	!	!	!
.	16dd\JJ)	<	.	.	.
8Dn\ 8F# 8A-	4b-X\	.	.	.	.
8BB-\J	.	.	.	.	.
8E-X\L 8G	(16aa\LL	.	4cc^\	do	.
.	16ccc\	.	.	.	.
8BB-\	16bb-X\	.	.	.	.
.	16gg\JJ)	.	.	.	.
8E-\ 8G	4ee-X\	.	4b-X\	mnie	.
8BB-\J	.	.	.	.	.
=258	=258	=258	=258	=258	=258
8D\L 8Fn 8A-X	(16een\LL	.	2r	.	.
.	16gg\	.	.	.	.
8BB-X\	16ffn\	.	.	.	.
.	16dd\JJ)	.	.	.	.
8D\ 8F 8A-	4b-X\	.	.	.	.
8BB-\J	.	.	.	.	.
8E-X\L 8G	(16aa\LL	.	4cc^\	lu-	.
.	16ccc\	.	.	.	.
8BB-\	16bb-X\	.	.	.	.
.	16gg\JJ)	.	.	.	.
8E-\ 8G	4ee-X\	.	4b-X\	-by	.
8BB-\J	.	.	.	.	.
=259	=259	=259	=259	=259	=259
8D\L 8Fn 8A-X	(16een\LL	.	4r	.	.
.	16gg\	.	.	.	.
8BB-X\	16ffn\	.	.	.	.
.	16dd\JJ)	.	.	.	.
8D\ 8F 8A-	4b-X\	.	8r	.	.
8BB-\J	.	.	8b-y\	ko-	.
8E-X\L 8G	(16aa\LL	.	4cc^\	-cha-	.
.	16ccc\	.	.	.	.
8BB-\	16bb-X\	.	.	.	.
.	16gg\JJ)	.	.	.	.
8E-\ 8G	4ee-X\	.	4b-\	-nek	.
8BB-\J	.	[[	.	.	.
!!LO:LB:g=original	!	!	!	!	!	!	!
=260	=260	=260	=260	=260	=260
8EE/L 8E	16bb-X\LL 16ggg	f	[1gg	spie-	.
.	16gg\	.	.	.	.
8GG/ 8G	16bb-\ 16ggg	.	.	.	.
.	16gg\	.	.	.	.
8BB-X/ 8B-X	16bb-\ 16ggg	.	.	.	.
.	16gg\	.	.	.	.
8GG/J 8G	16bb-\ 16ggg	.	.	.	.
.	16gg\JJ	.	.	.	.
8EE/L 8E	16bb-\LL 16ggg	.	.	.	.
.	16gg\	.	.	.	.
8BBB-X/ 8BB-	16bb-\ 16ggg	.	.	.	.
.	16gg\	.	.	.	.
8GGG/ 8GG	16bb-\ 16ggg	.	.	.	.
.	16gg\	.	.	.	.
8BBB-/J 8BB-	16bb-\ 16ggg	.	.	.	.
.	16gg\JJ	.	.	.	.
=261	=261	=261	=261	=261	=261
*Xtremolo	*	*	*	*	*
8EE-X/L 8E-X	16bb-X\LL 16ggg	.	2gg\]	.	.
.	16gg\	.	.	.	.
8EE-/ 8E-	16bb-\ 16ggg	.	.	.	.
.	16gg\	.	.	.	.
8EE-/ 8E-	16bb-\ 16ggg	.	.	.	.
.	16gg\	.	.	.	.
8EE-/J 8E-	16bb-\ 16ggg	.	.	.	.
.	16gg\JJ	.	.	.	.
*tremolo	*	*	*	*	*
8EE-/L 8E-	16bb-\LL 16ccc#X	.	2cc#X\	-szy	.
.	16gg\	.	.	.	.
8EE-/ 8E-	16bb-\ 16ccc#	.	.	.	.
.	16gg\	.	.	.	.
8EE-/ 8E-	16bb-\ 16ccc#	.	.	.	.
.	16gg\	.	.	.	.
8EE-/J 8E-	16bb-\ 16ccc#	.	.	.	.
.	16gg\JJ	.	.	.	.
=262	=262	=262	=262	=262	=262
4DD/ 4D	4gg\ 4bbn 4ddd	.	([4dd\	ach!	.
4rC	4ra	.	16dd\LL]	.	.
.	.	.	16cc#X\	.	.
.	.	.	16ee\	.	.
.	.	.	16dd\JJ	.	.
2rD	2rcc	.	16ccn/LL	.	.
.	.	.	16b/	.	.
.	.	.	16a/	.	.
.	.	.	16g/JJ	.	.
.	.	.	16f#/LL	.	.
.	.	.	16a/	.	.
.	.	.	16g/	.	.
.	.	.	16f#/JJ)	.	.
=263	=263	=263	=263	=263	=263
4DD/ 4D	4g\ 4b 4dd 4gg	.	4d/	.	.
4rC	4ra	.	([4gg^\	.	.
2rD	2rcc	.	16gg\LL]	.	.
.	.	.	16ff#\	.	.
.	.	.	16ee\	.	.
.	.	.	16dd\JJ	.	.
.	.	.	16cc#X\LL	.	.
.	.	.	16ee\	.	.
.	.	.	16dd\)	.	.
.	.	.	16b\JJ	.	.
!!LO:LB:g=original	!	!	!	!	!	!	!
=264	=264	=264	=264	=264	=264
4DD/ 4D	4b\ 4dd 4gg 4bb	.	4g/	.	.
4rC	4ra	.	4bb^\	.	.
4rC	4ra	.	(16bb\LL	.	.
.	.	.	16aa\	.	.
.	.	.	16gg\	.	.
.	.	.	16ff#\JJ)	.	.
4d\	4g/ 4b	.	(16gg\LL	.	.
.	.	.	16ff#\	.	.
.	.	.	16ee\	.	.
.	.	.	16dd\JJ)	.	.
=265	=265	=265	=265	=265	=265
4B\	4g\ 4b 4dd	.	(16ee\LL	.	.
.	.	.	16dd\	.	.
.	.	.	16cc\	.	.
.	.	.	16b\JJ)	.	.
4G\	4b\ 4dd 4gg	.	(16cc/LL	.	.
.	.	.	16b/	.	.
.	.	.	16a/	.	.
.	.	.	16g/JJ)	.	.
4D\	4dd\ 4gg 4bb	.	8b'\L	.	.
.	.	.	8dd'\	.	.
4rC	4ra	.	8gg'\	.	.
.	.	.	8bb'\J	.	.
=266	=266	=266	=266	=266	=266
8AAA/L 8AA	16aa\LL 16ccc#X	f	[2aa\	spie-	.
.	16gg\	.	.	.	.
8AAA/ 8AA	16aa\ 16ccc#	.	.	.	.
.	16gg\	.	.	.	.
8AAA/ 8AA	16aa\ 16ccc#	.	.	.	.
.	16gg\	.	.	.	.
8AAA/J 8AA	16aa\ 16ccc#	.	.	.	.
.	16gg\JJ	.	.	.	.
8AAA/L 8AA	16aa\LL 16ccc#	.	(8aa\L]	.	.
.	16gg\	.	.	.	.
8AAA/ 8AA	16aa\ 16ccc#	.	8gg\J)	.	.
.	16gg\	.	.	.	.
8AAA/ 8AA	16aa\ 16ccc#	.	8ff#\	-szy	.
.	16gg\	.	.	.	.
8AAA/J 8AA	16aa\ 16ccc#	.	8ee\	ko-	.
.	16gg\JJ	.	.	.	.
=267	=267	=267	=267	=267	=267
8DD/L 8D	16ff#\LL 16ddd	.	([2dd\	-cha-	.
.	16dd\	.	.	.	.
8DD/ 8D	16ff#\ 16ddd	.	.	.	.
.	16dd\	.	.	.	.
8DD/ 8D	16ff#\ 16ddd	.	.	.	.
.	16dd\	.	.	.	.
8DD/J 8D	16ff#\ 16ddd	.	.	.	.
.	16dd\JJ	.	.	.	.
8DD/L 8D	16ff#\LL 16cccn	.	8dd\L]	.	.
.	16dd\	.	.	.	.
8DD/ 8D	16ff#\ 16ccc	.	8cc#X\	.	.
.	16dd\	.	.	.	.
8DD/ 8D	16ff#\ 16ccc	.	8ccn\	.	.
.	16dd\	.	.	.	.
8DD/J 8D	16ff#\ 16ccc	.	8a\J)	.	.
.	16dd\JJ	.	.	.	.
=268	=268	=268	=268	=268	=268
8GG/L 8G	16gg^\LL 16bb	.	4g/	-nek	.
.	16dd\	.	.	.	.
8GG/ 8G	16gg\ 16bb	.	.	.	.
.	16dd\	.	.	.	.
8GG/ 8G	16gg\ 16bb	.	4r	.	.
.	16dd\	.	.	.	.
8GG/J 8G	16gg\ 16bb	.	.	.	.
.	16dd\JJ	.	.	.	.
8EE/L 8E	16ee^\LL 16gg#X	.	2ee^\	ach!	.
.	16b\	.	.	.	.
8EE/ 8E	16ee\ 16gg#	.	.	.	.
.	16b\	.	.	.	.
8EE/ 8E	16ee\ 16gg#	.	.	.	.
.	16b\	.	.	.	.
8EE/J 8E	16ee\ 16gg#	.	.	.	.
.	16b\JJ	.	.	.	.
=269	=269	=269	=269	=269	=269
8AAA/L 8AA	16cc#X^\LL 16aa	.	2aa^\	spie-	.
.	16a\	.	.	.	.
8AAA/ 8AA	16cc#\ 16aa	.	.	.	.
.	16a\	.	.	.	.
8AAA/ 8AA	16cc#\ 16aa	.	.	.	.
.	16a\	.	.	.	.
8AAA/J 8AA	16cc#\ 16aa	.	.	.	.
.	16a\JJ	.	.	.	.
8DD/L 8D	16ccn^\LL 16ff#X	.	2dd^\	-szy	.
.	16a\	.	.	.	.
8DD/ 8D	16cc\ 16ff#	.	.	.	.
.	16a\	.	.	.	.
8DD/ 8D	16cc\ 16ff#	.	.	.	.
.	16a\	.	.	.	.
8DD/J 8D	16cc\ 16ff#	.	.	.	.
.	16a\JJ	.	.	.	.
=270	=270	=270	=270	=270	=270
8GGG/L 8GG	16b\LL 16gg	f	2gg^\	spie-	.
.	16g\	.	.	.	.
8GGG/ 8GG	16b\ 16gg	.	.	.	.
.	16g\	.	.	.	.
8GGG/ 8GG	16b\ 16gg	.	.	.	.
.	16g\	.	.	.	.
8GGG/J 8GG	16b\ 16gg	.	.	.	.
.	16g\JJ	.	.	.	.
8CC#X/L 8C#X	16bb-X\LL 16eeen	.	4ee\	-szy	.
.	16gg\	.	.	.	.
8CC#/ 8C#	16bb-\ 16eee	.	.	.	.
.	16gg\	.	.	.	.
8CC#/ 8C#	16bb-\ 16eee	.	4ee\	ko-	.
.	16gg\	.	.	.	.
8CC#/J 8C#	16bb-\ 16eee	.	.	.	.
.	16gg\JJ	.	.	.	.
=271	=271	=271	=271	=271	=271
!	!	!	!	!	!LO:DY:a
8DD/L 8D	16bb\LL 16ddd	.	1dd	-cha-	<[
.	16gg\	.	.	.	.
8DD/ 8D	16bb\ 16ddd	.	.	.	.
.	16gg\	.	.	.	.
8DD/ 8D	16bb\ 16ddd	.	.	.	.
.	16gg\	.	.	.	.
8DD/J 8D	16bb\ 16ddd	.	.	.	.
.	16gg\JJ	.	.	.	.
8DD/L 8D	16ccc\LL 16fff#	.	.	.	.
.	16aa\	.	.	.	.
8DD/ 8D	16ccc\ 16fff#	.	.	.	.
.	16aa\	.	.	.	.
8DD/ 8D	16ccc\ 16fff#	.	.	.	.
.	16aa\	.	.	.	.
8DD/J 8D	16ccc\ 16fff#	.	.	.	.
.	16aa\JJ	.	.	.	.
=272	=272	=272	=272	=272	=272
4GG/ 4G	8.bb\L 8.ddd 8.ggg	ff	4g/	-nek.	.
.	16bb\Jk 16ddd 16ggg	.	.	.	.
4GG/ 4G	8.bb\L 8.ddd 8.ggg	.	4r	.	.
.	16gg\Jk 16bb 16ddd	.	.	.	.
4GG/ 4G	8.gg\L 8.bb 8.ddd	.	2r	.	.
.	16dd\Jk 16gg 16bb	.	.	.	.
4GG/ 4G	8.dd\L 8.gg 8.bb	.	.	.	.
.	16b\Jk 16dd 16gg	.	.	.	.
=273	=273	=273	=273	=273	=273
4GG/ 4G	8.b\L 8.dd 8.gg	.	1r	.	.
.	16g\Jk 16b 16dd	.	.	.	.
4GGG/ 4GG	8.g/L 8.b 8.dd	.	.	.	.
.	16d/Jk 16g 16b	.	.	.	.
4GGG/ 4GG	8.d/L 8.g 8.b	.	.	.	.
.	16B/Jk 16d 16g	.	.	.	.
4GGG/ 4GG	8.B/L 8.d 8.g	.	.	.	.
.	16B/Jk 16d 16g	.	.	.	.
=274	=274	=274	=274	=274	=274
4GGG/ 4GG	4B/ 4d 4g	.	1r	.	.
4rC	4ra	.	.	.	.
4G\ 4d 4g	4gg\ 4bb 4ddd 4ggg	.	.	.	.
8.rC	8.ra	.	.	.	.
16GG/ 16G	16B/ 16d 16g	.	.	.	.
=275	=275	=275	=275	=275	=275
2GG/ 2G	2B/ 2d 2g	.	1r;	.	.
2rD;	2rcc;	.	.	.	.
==	==	==	==	==	==
*-	*-	*-	*-	*-	*-
!!!system-decoration: s1{(s2,s3)}
!!!RDF**kern: > = above
!!!RDF**kern: < = below
!!!RDF**kern: N = linked
!!!ENC: Arkadiusz Malec
!!!END: 22-09-2022
!!!ENC: Jan Barakat
!!!END: 2022-10-28
